; generated by PrusaSlicer 2.4.0 on 2024-04-09 at 02:29:16 UTC

; 

; external perimeters extrusion width = 0.45mm
; perimeters extrusion width = 0.45mm
; infill extrusion width = 0.45mm
; solid infill extrusion width = 0.45mm
; top infill extrusion width = 0.40mm
; first layer extrusion width = 0.42mm

M201 X500 Y500 Z100 E5000 ; sets maximum accelerations, mm/sec^2
M203 X500 Y500 Z10 E60 ; sets maximum feedrates, mm/sec
M204 P500 R1000 T500 ; sets acceleration (P, T) and retract acceleration (R), mm/sec^2
M205 X8.00 Y8.00 Z0.40 E5.00 ; sets the jerk limits, mm/sec
M205 S0 T0 ; sets the minimum extruding and travel feed rate, mm/sec
M107
;TYPE:Custom
G90 ; use absolute coordinates
M83 ; extruder relative mode
M140 S90 ; set final bed temp
M104 S150 ; set temporary nozzle temp to prevent oozing during homing and auto bed leveling
G4 S10 ; allow partial nozzle warmup
G28 ; home all axis
;G29 ; auto bed levelling
BED_MESH_CALIBRATE AREA_START=105.825,97.3073 AREA_END=133.71,133.693
G1 Z50 F240
G1 X2 Y10 F3000
M104 S210 ; set final nozzle temp
M190 S90 ; wait for bed temp to stabilize
M109 S210 ; wait for nozzle temp to stabilize
G1 Z0.28 F240
G92 E0
G1 Y140 E10 F1500 ; prime the nozzle
G1 X2.3 F5000
G92 E0
G1 Y10 E10 F1200 ; prime the nozzle
G92 E0
G21 ; set units to millimeters
G90 ; use absolute coordinates
M83 ; use relative distances for extrusion
; Filament gcode
M107
;LAYER_CHANGE
;Z:0.2
;HEIGHT:0.2
;BEFORE_LAYER_CHANGE
G92 E0
;0.2


G1 E-5 F3600
G1 Z.2 F9000
;AFTER_LAYER_CHANGE
;0.2
TIMELAPSE_TAKE_FRAME
G1 X107.509 Y98.251
G1 E5 F2400
M204 S500
;TYPE:Skirt/Brim
;WIDTH:0.42
G1 F1200
G1 X109.768 Y97.496 E.07467
G1 X129.768 Y97.496 E.62709
G1 X131.443 Y97.891 E.05397
G1 X132.767 Y98.992 E.05397
G1 X133.522 Y101.25 E.07467
G1 X133.522 Y122.25 E.65844
G1 X133.127 Y123.926 E.05397
G1 X132.422 Y124.905 E.03783
G1 X124.922 Y132.405 E.33256
G1 X123.458 Y133.31 E.05397
G1 X122.268 Y133.504 E.03783
G1 X112.432 Y133.504 E.30839
G1 X110.757 Y133.109 E.05397
G1 X109.433 Y132.008 E.05397
G1 X108.895 Y131.007 E.03566
G1 X106.23 Y123.507 E.24956
G1 X106.014 Y122.25 E.03999
G1 X106.014 Y101.25 E.65844
G1 X106.408 Y99.574 E.05397
G1 X107.471 Y98.297 E.05209
G1 X107.772 Y98.568 F9000
G1 F1200
G1 X107.875 Y98.453 E.00483
G1 X109.768 Y97.873 E.06207
G1 X129.768 Y97.873 E.62709
G1 X131.351 Y98.267 E.05115
G1 X132.565 Y99.357 E.05115
G1 X133.145 Y101.25 E.06207
G1 X133.145 Y122.25 E.65844
G1 X132.751 Y123.833 E.05115
G1 X132.156 Y124.638 E.03138
G1 X124.656 Y132.138 E.33256
G1 X123.258 Y132.979 E.05115
G1 X122.268 Y133.127 E.03138
G1 X112.432 Y133.127 E.30839
G1 X110.849 Y132.733 E.05115
G1 X109.635 Y131.643 E.05115
G1 X109.25 Y130.881 E.02678
G1 X106.586 Y123.381 E.24956
G1 X106.391 Y122.25 E.03597
G1 X106.391 Y101.25 E.65844
G1 X106.785 Y99.667 E.05115
G1 X107.732 Y98.612 E.04444
G1 E-3.5 F3600
;WIPE_START
G1 F7200
G1 X107.875 Y98.453 E-.10168
G1 X109.768 Y97.873 E-.94035
G1 X110.574 Y97.873 E-.38297
;WIPE_END
G1 E-.075 F3600
G1 X110.855 Y113.937 F9000
G1 E5 F2400
;TYPE:Perimeter
G1 F1200
G1 X117.081 Y113.937 E.19521
G1 X117.081 Y118.937 E.15677
G1 X122.455 Y118.937 E.1685
G1 X122.455 Y113.937 E.15677
G1 X129.081 Y113.937 E.20775
G1 X129.081 Y121.563 E.2391
G1 X121.581 Y121.563 E.23516
G1 X121.581 Y129.063 E.23516
G1 X113.319 Y129.063 E.25903
G1 X113.319 Y125.437 E.11369
G1 X117.955 Y125.437 E.14534
G1 X117.955 Y121.563 E.12147
G1 X110.455 Y121.563 E.23516
G1 X110.455 Y113.937 E.2391
G1 X110.795 Y113.937 E.01066
G1 X110.078 Y113.56 F9000
;TYPE:External perimeter
G1 F1200
G1 X117.458 Y113.56 E.23139
G1 X117.458 Y118.56 E.15677
G1 X122.078 Y118.56 E.14486
G1 X122.078 Y113.56 E.15677
G1 X129.458 Y113.56 E.23139
G1 X129.458 Y121.94 E.26275
G1 X121.958 Y121.94 E.23516
G1 X121.958 Y129.44 E.23516
G1 X112.942 Y129.44 E.28268
G1 X112.942 Y125.06 E.13733
G1 X117.578 Y125.06 E.14534
G1 X117.578 Y121.94 E.09783
G1 X110.078 Y121.94 E.23516
G1 X110.078 Y113.62 E.26087
G1 X110.462 Y113.671 F9000
G1 E-3.5 F3600
;WIPE_START
G1 F7200
G1 X113.078 Y113.596 E-1.425
;WIPE_END
G1 E-.075 F3600
G1 X128.202 Y114.05 F9000
G1 E5 F2400
;TYPE:Solid infill
;WIDTH:0.421411
G1 F1200
G1 X128.798 Y114.646 E.02651
G1 X128.798 Y115.181 E.01685
G1 X127.837 Y114.22 E.04278
G1 X127.301 Y114.22 E.01685
G1 X128.798 Y115.716 E.0666
G1 X128.798 Y116.252 E.01685
G1 X126.766 Y114.22 E.09043
G1 X126.231 Y114.22 E.01685
G1 X128.798 Y116.787 E.11425
G1 X128.798 Y117.322 E.01685
G1 X125.696 Y114.22 E.13807
G1 X125.16 Y114.22 E.01685
G1 X128.798 Y117.857 E.1619
G1 X128.798 Y118.393 E.01685
G1 X124.625 Y114.22 E.18572
G1 X124.09 Y114.22 E.01685
G1 X128.798 Y118.928 E.20954
G1 X128.798 Y119.463 E.01685
G1 X123.555 Y114.22 E.23337
G1 X123.019 Y114.22 E.01685
G1 X128.798 Y119.998 E.25719
G1 X128.798 Y120.534 E.01685
G1 X122.738 Y114.473 E.26973
G1 X122.738 Y115.009 E.01685
G1 X128.798 Y121.069 E.26973
G1 X128.798 Y121.28 E.00665
G1 X128.474 Y121.28 E.0102
G1 X122.738 Y115.544 E.2553
G1 X122.738 Y116.079 E.01685
G1 X127.939 Y121.28 E.23148
G1 X127.403 Y121.28 E.01685
G1 X122.738 Y116.615 E.20766
G1 X122.738 Y117.15 E.01685
G1 X126.868 Y121.28 E.18383
G1 X126.333 Y121.28 E.01685
G1 X122.738 Y117.685 E.16001
G1 X122.738 Y118.22 E.01685
G1 X125.797 Y121.28 E.13619
G1 X125.262 Y121.28 E.01685
G1 X122.738 Y118.756 E.11236
G1 X122.738 Y119.22 E.01461
G1 X122.667 Y119.22 E.00223
G1 X124.727 Y121.28 E.0917
G1 X124.192 Y121.28 E.01685
G1 X122.131 Y119.22 E.0917
G1 X121.596 Y119.22 E.01685
G1 X123.656 Y121.28 E.0917
G1 X123.121 Y121.28 E.01685
G1 X121.061 Y119.22 E.0917
G1 X120.526 Y119.22 E.01685
G1 X122.586 Y121.28 E.0917
G1 X122.051 Y121.28 E.01685
G1 X119.99 Y119.22 E.0917
G1 X119.455 Y119.22 E.01685
G1 X121.515 Y121.28 E.0917
G1 X121.298 Y121.28 E.00684
G1 X121.298 Y121.598 E.01
G1 X118.92 Y119.22 E.10584
G1 X118.385 Y119.22 E.01685
G1 X121.298 Y122.133 E.12967
G1 X121.298 Y122.669 E.01685
G1 X117.68 Y119.05 E.16104
G1 E-3.5 F3600
;WIPE_START
G1 F7200
G1 X119.801 Y121.172 E-1.425
;WIPE_END
G1 E-.075 F3600
G1 X116.968 Y114.591 F9000
G1 E5 F2400
G1 F1200
G1 X116.596 Y114.22 E.01653
G1 X116.061 Y114.22 E.01685
G1 X116.798 Y114.957 E.0328
G1 X116.798 Y115.492 E.01685
G1 X115.526 Y114.22 E.05663
G1 X114.99 Y114.22 E.01685
G1 X116.798 Y116.027 E.08045
G1 X116.798 Y116.563 E.01685
G1 X114.455 Y114.22 E.10427
G1 X113.92 Y114.22 E.01685
G1 X116.798 Y117.098 E.1281
G1 X116.798 Y117.633 E.01685
G1 X113.385 Y114.22 E.15192
G1 X112.849 Y114.22 E.01685
G1 X116.968 Y118.338 E.1833
G1 E-3.5 F3600
;WIPE_START
G1 F7200
G1 X114.846 Y116.217 E-1.425
;WIPE_END
G1 E-.075 F3600
G1 X112.144 Y114.05 F9000
G1 E5 F2400
G1 F1200
G1 X116.798 Y118.704 E.20712
G1 X116.798 Y119.22 E.01624
G1 X117.314 Y119.22 E.01624
G1 X121.298 Y123.204 E.17731
G1 X121.298 Y123.739 E.01685
G1 X111.779 Y114.22 E.42368
G1 X111.243 Y114.22 E.01685
G1 X121.298 Y124.274 E.4475
G1 X121.298 Y124.81 E.01685
G1 X118.238 Y121.749 E.13621
G1 X118.238 Y121.28 E.01477
G1 X117.768 Y121.28 E.01477
G1 X110.738 Y114.249 E.31293
G1 X110.738 Y114.785 E.01685
G1 X117.233 Y121.28 E.2891
G1 X116.698 Y121.28 E.01685
G1 X110.738 Y115.32 E.26528
G1 X110.738 Y115.855 E.01685
G1 X116.163 Y121.28 E.24146
G1 X115.627 Y121.28 E.01685
G1 X110.738 Y116.39 E.21763
G1 X110.738 Y116.926 E.01685
G1 X115.092 Y121.28 E.19381
G1 X114.557 Y121.28 E.01685
G1 X110.738 Y117.461 E.16998
G1 X110.738 Y117.996 E.01685
G1 X114.022 Y121.28 E.14616
G1 X113.486 Y121.28 E.01685
G1 X110.738 Y118.531 E.12234
G1 X110.738 Y119.067 E.01685
G1 X112.951 Y121.28 E.09851
G1 X112.416 Y121.28 E.01685
G1 X110.738 Y119.602 E.07469
G1 X110.738 Y120.137 E.01685
G1 X111.881 Y121.28 E.05087
G1 X111.345 Y121.28 E.01685
G1 X110.738 Y120.673 E.02704
G1 X110.738 Y121.208 E.01685
G1 X110.98 Y121.45 E.01077
G1 E-3.5 F3600
;WIPE_START
G1 F7200
G1 X110.738 Y121.208 E-.16259
G1 X110.738 Y120.673 E-.25425
G1 X111.345 Y121.28 E-.40817
G1 X111.881 Y121.28 E-.25425
G1 X111.366 Y120.765 E-.34573
;WIPE_END
G1 E-.075 F3600
G1 X118.068 Y122.115 F9000
G1 E5 F2400
G1 F1200
G1 X121.298 Y125.345 E.14376
G1 X121.298 Y125.88 E.01685
G1 X118.238 Y122.82 E.13621
G1 X118.238 Y123.355 E.01685
G1 X121.298 Y126.415 E.13621
G1 X121.298 Y126.951 E.01685
G1 X118.238 Y123.89 E.13621
G1 X118.238 Y124.426 E.01685
G1 X121.298 Y127.486 E.13621
G1 X121.298 Y128.021 E.01685
G1 X118.238 Y124.961 E.13621
G1 X118.238 Y125.496 E.01685
G1 X121.298 Y128.556 E.13621
G1 X121.298 Y128.78 E.00704
G1 X120.986 Y128.78 E.00981
G1 X117.926 Y125.72 E.13621
G1 X117.391 Y125.72 E.01685
G1 X120.451 Y128.78 E.13621
G1 X119.916 Y128.78 E.01685
G1 X116.856 Y125.72 E.13621
G1 X116.32 Y125.72 E.01685
G1 X119.381 Y128.78 E.13621
G1 X118.845 Y128.78 E.01685
G1 X115.785 Y125.72 E.13621
G1 X115.25 Y125.72 E.01685
G1 X118.31 Y128.78 E.13621
G1 X117.775 Y128.78 E.01685
G1 X114.714 Y125.72 E.13621
G1 X114.179 Y125.72 E.01685
G1 X117.239 Y128.78 E.13621
G1 X116.704 Y128.78 E.01685
G1 X113.644 Y125.72 E.13621
G1 X113.602 Y125.72 E.00132
G1 X113.602 Y126.213 E.01553
G1 X116.169 Y128.78 E.11424
G1 X115.634 Y128.78 E.01685
G1 X113.602 Y126.749 E.09042
G1 X113.602 Y127.284 E.01685
G1 X115.098 Y128.78 E.0666
G1 X114.563 Y128.78 E.01685
G1 X113.602 Y127.819 E.04277
G1 X113.602 Y128.354 E.01685
G1 X114.198 Y128.95 E.0265
G1 E-3.5 F3600
;WIPE_START
G1 F7200
G1 X113.602 Y128.354 E-.39999
G1 X113.602 Y127.819 E-.25425
G1 X114.563 Y128.78 E-.64557
G1 X114.827 Y128.78 E-.12519
;WIPE_END
G1 E-.075 F3600
G1 X116.681 Y109.563 F9000
G1 E5 F2400
;TYPE:Perimeter
;WIDTH:0.42
G1 F1200
G1 X110.455 Y109.563 E.19521
G1 X110.455 Y101.937 E.2391
G1 X117.081 Y101.937 E.20775
G1 X117.081 Y109.563 E.2391
G1 X116.741 Y109.563 E.01066
G1 X117.458 Y109.94 F9000
;TYPE:External perimeter
G1 F1200
G1 X110.078 Y109.94 E.23139
G1 X110.078 Y101.56 E.26275
G1 X117.458 Y101.56 E.23139
G1 X117.458 Y109.88 E.26087
G1 X117.074 Y109.828 F9000
G1 E-3.5 F3600
;WIPE_START
G1 F7200
G1 X114.458 Y109.904 E-1.425
;WIPE_END
G1 E-.075 F3600
G1 X116.968 Y102.813 F9000
G1 E5 F2400
;TYPE:Solid infill
;WIDTH:0.420261
G1 F1200
G1 X116.374 Y102.22 E.02632
G1 X115.841 Y102.22 E.01674
G1 X116.798 Y103.177 E.04247
G1 X116.798 Y103.711 E.01674
G1 X115.307 Y102.22 E.06615
G1 X114.774 Y102.22 E.01674
G1 X116.798 Y104.244 E.08983
G1 X116.798 Y104.778 E.01674
G1 X114.24 Y102.22 E.11351
G1 X113.706 Y102.22 E.01674
G1 X116.798 Y105.312 E.13718
G1 X116.798 Y105.845 E.01674
G1 X113.173 Y102.22 E.16086
G1 X112.639 Y102.22 E.01674
G1 X116.798 Y106.379 E.18454
G1 X116.798 Y106.912 E.01674
G1 X112.105 Y102.22 E.20822
G1 X111.572 Y102.22 E.01674
G1 X116.798 Y107.446 E.2319
G1 X116.798 Y107.98 E.01674
G1 X111.038 Y102.22 E.25558
G1 X110.738 Y102.22 E.00943
G1 X110.738 Y102.453 E.00732
G1 X116.798 Y108.513 E.26891
G1 X116.798 Y109.047 E.01674
G1 X110.738 Y102.987 E.26891
G1 X110.738 Y103.52 E.01674
G1 X116.497 Y109.28 E.25557
G1 X115.964 Y109.28 E.01674
G1 X110.738 Y104.054 E.2319
G1 X110.738 Y104.588 E.01674
G1 X115.43 Y109.28 E.20822
G1 X114.896 Y109.28 E.01674
G1 X110.738 Y105.121 E.18454
G1 X110.738 Y105.655 E.01674
G1 X114.363 Y109.28 E.16086
G1 X113.829 Y109.28 E.01674
G1 X110.738 Y106.189 E.13718
G1 X110.738 Y106.722 E.01674
G1 X113.296 Y109.28 E.1135
G1 X112.762 Y109.28 E.01674
G1 X110.738 Y107.256 E.08982
G1 X110.738 Y107.79 E.01674
G1 X112.228 Y109.28 E.06614
G1 X111.695 Y109.28 E.01674
G1 X110.738 Y108.323 E.04246
G1 X110.738 Y108.857 E.01674
G1 X111.331 Y109.45 E.02631
G1 E-3.5 F3600
;WIPE_START
G1 F7200
G1 X110.738 Y108.857 E-.39837
G1 X110.738 Y108.323 E-.25348
G1 X111.695 Y109.28 E-.64286
G1 X111.969 Y109.28 E-.1303
;WIPE_END
G1 E-.075 F3600
G1 X122.455 Y109.163 F9000
G1 E5 F2400
;TYPE:Perimeter
;WIDTH:0.42
G1 F1200
G1 X122.455 Y101.937 E.22656
G1 X129.081 Y101.937 E.20775
G1 X129.081 Y109.563 E.2391
G1 X122.455 Y109.563 E.20775
G1 X122.455 Y109.223 E.01066
G1 X122.078 Y109.94 F9000
;TYPE:External perimeter
G1 F1200
G1 X122.078 Y101.56 E.26275
G1 X129.458 Y101.56 E.23139
G1 X129.458 Y109.94 E.26275
G1 X122.138 Y109.94 E.22951
G1 X122.173 Y109.552 F9000
G1 E-3.5 F3600
;WIPE_START
G1 F7200
G1 X122.116 Y106.94 E-1.425
;WIPE_END
G1 E-.075 F3600
G1 X128.205 Y102.05 F9000
G1 E5 F2400
;TYPE:Solid infill
;WIDTH:0.420261
G1 F1200
G1 X128.798 Y102.643 E.02632
G1 X128.798 Y103.177 E.01674
G1 X127.841 Y102.22 E.04247
G1 X127.307 Y102.22 E.01674
G1 X128.798 Y103.711 E.06615
G1 X128.798 Y104.244 E.01674
G1 X126.774 Y102.22 E.08983
G1 X126.24 Y102.22 E.01674
G1 X128.798 Y104.778 E.11351
G1 X128.798 Y105.312 E.01674
G1 X125.706 Y102.22 E.13718
G1 X125.173 Y102.22 E.01674
G1 X128.798 Y105.845 E.16086
G1 X128.798 Y106.379 E.01674
G1 X124.639 Y102.22 E.18454
G1 X124.105 Y102.22 E.01674
G1 X128.798 Y106.912 E.20822
G1 X128.798 Y107.446 E.01674
G1 X123.572 Y102.22 E.2319
G1 X123.038 Y102.22 E.01674
G1 X128.798 Y107.98 E.25558
G1 X128.798 Y108.513 E.01674
G1 X122.738 Y102.453 E.26891
G1 X122.738 Y102.987 E.01674
G1 X128.798 Y109.047 E.26891
G1 X128.798 Y109.28 E.00731
G1 X128.497 Y109.28 E.00943
G1 X122.738 Y103.52 E.25557
G1 X122.738 Y104.054 E.01674
G1 X127.964 Y109.28 E.23189
G1 X127.43 Y109.28 E.01674
G1 X122.738 Y104.588 E.20822
G1 X122.738 Y105.121 E.01674
G1 X126.896 Y109.28 E.18454
G1 X126.363 Y109.28 E.01674
G1 X122.738 Y105.655 E.16086
G1 X122.738 Y106.189 E.01674
G1 X125.829 Y109.28 E.13718
G1 X125.296 Y109.28 E.01674
G1 X122.738 Y106.722 E.1135
G1 X122.738 Y107.256 E.01674
G1 X124.762 Y109.28 E.08982
G1 X124.228 Y109.28 E.01674
G1 X122.738 Y107.79 E.06614
G1 X122.738 Y108.323 E.01674
G1 X123.695 Y109.28 E.04246
G1 X123.161 Y109.28 E.01674
G1 X122.568 Y108.687 E.02631
M106 S255
;LAYER_CHANGE
;Z:0.4
;HEIGHT:0.2
;BEFORE_LAYER_CHANGE
G92 E0
;0.4


G1 E-3.5 F3600
;WIPE_START
G1 F7200
G1 X123.161 Y109.28 E-.39837
G1 X123.695 Y109.28 E-.25348
G1 X122.738 Y108.323 E-.64285
G1 X122.738 Y108.049 E-.1303
;WIPE_END
G1 E-.075 F3600
G1 Z.4 F9000
;AFTER_LAYER_CHANGE
;0.4
TIMELAPSE_TAKE_FRAME
M104 S205 ; set temperature
M140 S85 ; set bed temperature
G1 X122.738 Y97.496
G1 E5 F2400
;TYPE:Skirt/Brim
;WIDTH:0.42
G1 X129.768 Y97.496 E.22042
G1 X131.443 Y97.891 E.05397
G1 X132.767 Y98.992 E.05397
G1 X133.522 Y101.25 E.07467
G1 X133.522 Y122.25 E.65844
G1 X133.127 Y123.926 E.05397
G1 X132.422 Y124.905 E.03783
G1 X124.922 Y132.405 E.33256
G1 X123.458 Y133.31 E.05397
G1 X122.268 Y133.504 E.03783
G1 X112.432 Y133.504 E.30839
G1 X110.757 Y133.109 E.05397
G1 X109.433 Y132.008 E.05397
G1 X108.895 Y131.007 E.03566
G1 X106.23 Y123.507 E.24956
G1 X106.014 Y122.25 E.03999
G1 X106.014 Y101.25 E.65844
G1 X106.408 Y99.574 E.05397
G1 X107.509 Y98.251 E.05397
G1 X109.768 Y97.496 E.07467
G1 X122.678 Y97.496 E.40478
G1 X122.678 Y97.873 F9000
G1 F2400
G1 X129.768 Y97.873 E.22231
G1 X131.351 Y98.267 E.05115
G1 X132.565 Y99.357 E.05115
G1 X133.145 Y101.25 E.06207
G1 X133.145 Y122.25 E.65844
G1 X132.751 Y123.833 E.05115
G1 X132.156 Y124.638 E.03138
G1 X124.656 Y132.138 E.33256
G1 X123.258 Y132.979 E.05115
G1 X122.268 Y133.127 E.03138
G1 X112.432 Y133.127 E.30839
G1 X110.849 Y132.733 E.05115
G1 X109.635 Y131.643 E.05115
G1 X109.25 Y130.881 E.02678
G1 X106.586 Y123.381 E.24956
G1 X106.391 Y122.25 E.03597
G1 X106.391 Y101.25 E.65844
G1 X106.785 Y99.667 E.05115
G1 X107.875 Y98.453 E.05115
G1 X109.768 Y97.873 E.06207
G1 X122.618 Y97.873 E.4029
G1 E-3.5 F3600
;WIPE_START
G1 F7200
G1 X125.618 Y97.873 E-1.425
;WIPE_END
G1 E-.075 F3600
G1 X122.8 Y101.882 F9000
G1 E5 F2400
;TYPE:Perimeter
;WIDTH:0.45
G1 F1500
G1 X129.136 Y101.882 E.21446
G1 X129.136 Y109.618 E.26185
G1 X122.4 Y109.618 E.228
G1 X122.4 Y101.882 E.26185
G1 X122.74 Y101.882 E.01151
G1 X121.993 Y101.475 F9000
;TYPE:External perimeter
G1 F1500
G1 X129.543 Y101.475 E.25556
G1 X129.543 Y110.025 E.28941
G1 X121.993 Y110.025 E.25556
G1 X121.993 Y101.535 E.28738
G1 X122.377 Y101.586 F9000
G1 E-3.5 F3600
;WIPE_START
G1 F7200
G1 X124.993 Y101.511 E-1.425
;WIPE_END
G1 E-.075 F3600
G1 X128.175 Y109.496 F9000
G1 E5 F2400
;TYPE:Solid infill
;WIDTH:0.457303
G1 X128.83 Y108.841 E.03193
G1 X128.83 Y108.255 E.02019
G1 X127.772 Y109.313 E.05156
G1 X127.186 Y109.313 E.02019
G1 X128.83 Y107.669 E.08011
G1 X128.83 Y107.083 E.02019
G1 X126.6 Y109.313 E.10867
G1 X126.014 Y109.313 E.02019
G1 X128.83 Y106.496 E.13723
