; HEADER_BLOCK_START
; generated by OrcaSlicer 2.0.0 on 2024-04-11 at 00:42:07
; total layer number: 205
; filament_density: 1.24
; filament_diameter: 1.75
; max_z_height: 41.85
; HEADER_BLOCK_END

; THUMBNAIL_BLOCK_START

;
; THUMBNAIL_BLOCK_END

; THUMBNAIL_BLOCK_START

;
; THUMBNAIL_BLOCK_END

; external perimeters extrusion width = 0.63mm
; perimeters extrusion width = 0.66mm
; infill extrusion width = 0.66mm
; solid infill extrusion width = 0.66mm
; top infill extrusion width = 0.60mm
; support material extrusion width = 0.54mm
; first layer extrusion width = 0.63mm

; external perimeters extrusion width = 0.63mm
; perimeters extrusion width = 0.66mm
; infill extrusion width = 0.66mm
; solid infill extrusion width = 0.66mm
; top infill extrusion width = 0.60mm
; support material extrusion width = 0.54mm
; first layer extrusion width = 0.63mm

; external perimeters extrusion width = 0.63mm
; perimeters extrusion width = 0.66mm
; infill extrusion width = 0.66mm
; solid infill extrusion width = 0.66mm
; top infill extrusion width = 0.60mm
; support material extrusion width = 0.54mm
; first layer extrusion width = 0.63mm

; external perimeters extrusion width = 0.63mm
; perimeters extrusion width = 0.66mm
; infill extrusion width = 0.66mm
; solid infill extrusion width = 0.66mm
; top infill extrusion width = 0.60mm
; support material extrusion width = 0.54mm
; first layer extrusion width = 0.63mm

; EXECUTABLE_BLOCK_START
M73 P0 R70
;TYPE:Custom
G90 ; use absolute coordinates
M83 ; extruder relative mode
M140 S60 ; set final bed temp
M104 S170 ; set temporary nozzle temp to prevent oozing during homing and auto bed leveling
G4 S10 ; allow partial nozzle warmup
G28 ; home all axis
;G29 ; auto bed levelling
BED_MESH_CALIBRATE AREA_START=110.841,4.03725 AREA_END=203.57,37.6021
G1 Z20 F240
G1 X2 Y10 F3000
M104 S215 ; set final nozzle temp
M190 S60 ; wait for bed temp to stabilize
M109 S215 ; wait for nozzle temp to stabilize
M73 P0 R69
G1 Z0.28 F240
G92 E0
G1 Y140 E10 F1500 ; prime the nozzle
G1 X2.3 F5000
G92 E0
G1 Y10 E10 F1200 ; prime the nozzle
G92 E0
G90
G21
M83 ; use relative distances for extrusion
; filament start gcode
M106 S0
;LAYER_CHANGE
;Z:0.2
;HEIGHT:0.2
;BEFORE_LAYER_CHANGE
;0.2
G92 E0

G1 E-4 F3600
TIMELAPSE_TAKE_FRAME
;_SET_FAN_SPEED_CHANGING_LAYER
G1 Z.4 F9000
G1 X111.336 Y10.058
G1 Z.4
G1 Z.2
G1 E4 F2400
;TYPE:Skirt
;WIDTH:0.63
G1 F3000
G1 X111.755 Y8.534 E.07563
G1 X112.265 Y7.866 E.04019
G1 X113.252 Y6.879 E.06678
G1 X114.613 Y6.075 E.07563
G1 X115.414 Y5.95 E.03877
G1 X177.622 Y4.332 E2.97699
G1 X199.115 Y4.331 E1.02825
G1 X200.646 Y4.724 E.07563
G1 X201.36 Y5.26 E.04269
G1 X202.347 Y6.248 E.06678
G1 X203.151 Y7.609 E.07563
G1 X203.277 Y8.492 E.04269
G1 X203.275 Y18.831 E.49461
G1 X202.908 Y33.228 E.68899
G1 X202.475 Y34.749 E.07563
G1 X201.979 Y35.392 E.03884
G1 X200.992 Y36.379 E.06678
G1 X199.631 Y37.183 E.07563
G1 X198.747 Y37.309 E.04269
G1 X177.303 Y37.308 E1.0259
G1 X115.262 Y36.658 E2.96816
G1 X113.735 Y36.248 E.07563
G1 X113.051 Y35.728 E.04111
G1 X112.064 Y34.741 E.06678
G1 X111.26 Y33.38 E.07563
G1 X111.134 Y32.497 E.04269
G1 X111.134 Y22.239 E.49074
G1 X111.335 Y10.118 E.57994
G1 X111.922 Y10.128 F9000
G1 F3000
G1 X111.923 Y10.068 E.00287
G1 X112.68 Y8.281 E.09283
G1 X113.667 Y7.294 E.06678
G1 X115.429 Y6.537 E.09174
G1 X177.704 Y4.918 E2.98021
G1 X199.115 Y4.918 E1.0243
G1 X200.945 Y5.676 E.09473
G1 X201.932 Y6.663 E.06678
G1 X202.689 Y8.492 E.09473
G1 X202.689 Y18.816 E.4939
G1 X202.321 Y33.213 E.68899
G1 X201.564 Y34.977 E.0918
G1 X200.577 Y35.964 E.06678
G1 X198.747 Y36.722 E.09473
G1 X177.309 Y36.721 E1.0256
G1 X115.269 Y36.071 E2.96816
G1 X113.466 Y35.313 E.09353
G1 X112.479 Y34.326 E.06678
G1 X111.722 Y32.497 E.09473
G1 X111.722 Y22.196 E.49279
G1 X111.921 Y10.188 E.57455
; printing object Cube id:2816 copy 0
G1 E-2.8 F3600
;WIPE_START
G1 F3000
G1 X111.923 Y10.068 E-.144
G1 X112.266 Y9.257 E-1.056
;WIPE_END
G1 Z.6 F9000
G1 X200.102 Y8.492 Z.6
G1 Z.2
G1 E4 F2400
;TYPE:Support
G1 F900
G1 X200.102 Y18.75 E.49074
G1 X199.115 Y19.737 E.06678
G1 X177.704 Y19.737 E1.0243
G1 X176.717 Y18.75 E.06678
G1 X176.717 Y8.492 E.49074
G1 X177.704 Y7.505 E.06678
G1 X199.115 Y7.505 E1.0243
G1 X200.04 Y8.43 E.06257
G1 E-2.8 F3600
;WIPE_START
G1 F900
G1 X199.333 Y7.723 E-1.2
;WIPE_END
G1 Z.6 F9000
G1 X177.32 Y18.606 Z.6
G1 Z.2
G1 E4 F2400
G1 F900
G1 X177.32 Y8.636 E.47697
G1 X177.923 Y8.033 E.04076
G1 X177.973 Y8.033 E.00238
G1 X177.973 Y19.209 E.53462
G1 X178.625 Y19.209 E.03121
M73 P1 R69
G1 X178.625 Y8.033 E.53462
G1 X179.277 Y8.033 E.03121
G1 X179.277 Y19.209 E.53462
G1 X179.93 Y19.209 E.03121
G1 X179.93 Y8.033 E.53462
G1 X180.582 Y8.033 E.03121
G1 X180.582 Y19.209 E.53462
G1 X181.234 Y19.209 E.03121
G1 X181.234 Y8.033 E.53462
G1 X181.887 Y8.033 E.03121
G1 X181.887 Y19.209 E.53462
G1 X182.539 Y19.209 E.03121
G1 X182.539 Y8.033 E.53462
G1 X183.191 Y8.033 E.03121
G1 X183.191 Y19.209 E.53462
G1 X183.844 Y19.209 E.03121
G1 X183.844 Y8.033 E.53462
G1 X184.496 Y8.033 E.03121
G1 X184.496 Y19.209 E.53462
G1 X185.148 Y19.209 E.03121
G1 X185.148 Y8.033 E.53462
G1 X185.8 Y8.033 E.03121
G1 X185.8 Y19.209 E.53462
G1 X186.453 Y19.209 E.03121
G1 X186.453 Y8.033 E.53462
G1 X187.105 Y8.033 E.03121
G1 X187.105 Y19.209 E.53462
G1 X187.757 Y19.209 E.03121
G1 X187.757 Y8.033 E.53462
G1 X188.41 Y8.033 E.03121
G1 X188.41 Y19.209 E.53462
G1 X189.062 Y19.209 E.03121
G1 X189.062 Y8.033 E.53462
G1 X189.714 Y8.033 E.03121
G1 X189.714 Y19.209 E.53462
G1 X190.367 Y19.209 E.03121
G1 X190.367 Y8.033 E.53462
G1 X191.019 Y8.033 E.03121
G1 X191.019 Y19.209 E.53462
G1 X191.671 Y19.209 E.03121
G1 X191.671 Y8.033 E.53462
G1 X192.324 Y8.033 E.03121
G1 X192.324 Y19.209 E.53462
G1 X192.976 Y19.209 E.03121
G1 X192.976 Y8.033 E.53462
G1 X193.628 Y8.033 E.03121
G1 X193.628 Y19.209 E.53462
G1 X194.28 Y19.209 E.03121
G1 X194.28 Y8.033 E.53462
G1 X194.933 Y8.033 E.03121
G1 X194.933 Y19.209 E.53462
G1 X195.585 Y19.209 E.03121
M73 P1 R68
G1 X195.585 Y8.033 E.53462
G1 X196.237 Y8.033 E.03121
G1 X196.237 Y19.209 E.53462
G1 X196.89 Y19.209 E.03121
G1 X196.89 Y8.033 E.53462
G1 X197.542 Y8.033 E.03121
G1 X197.542 Y19.209 E.53462
G1 X198.194 Y19.209 E.03121
G1 X198.194 Y8.033 E.53462
G1 X198.847 Y8.033 E.03121
G1 X198.847 Y19.209 E.53462
G1 X198.896 Y19.209 E.00238
G1 X199.499 Y18.606 E.04076
G1 X199.499 Y8.636 E.47697
; stop printing object Cube id:2816 copy 0
; printing object Cube id:2816 copy 0
G1 E-2.8 F3600
;WIPE_START
G1 F900
G1 X199.499 Y9.636 E-1.2
;WIPE_END
G1 Z.6 F9000
G1 X199.735 Y22.889 Z.6
G1 Z.2
G1 E4 F2400
G1 F900
G1 X199.735 Y33.147 E.49074
G1 X198.747 Y34.134 E.06678
G1 X177.336 Y34.134 E1.0243
G1 X176.349 Y33.147 E.06678
G1 X176.349 Y22.889 E.49074
G1 X177.336 Y21.902 E.06678
G1 X198.747 Y21.902 E1.0243
G1 X199.672 Y22.827 E.06257
G1 E-2.8 F3600
;WIPE_START
G1 F900
G1 X198.965 Y22.12 E-1.2
;WIPE_END
G1 Z.6 F9000
G1 X176.953 Y33.004 Z.6
G1 Z.2
G1 E4 F2400
G1 F900
G1 X176.953 Y23.033 E.47697
G1 X177.555 Y22.431 E.04076
G1 X177.605 Y22.431 E.00238
G1 X177.605 Y33.606 E.53462
G1 X178.257 Y33.606 E.03121
G1 X178.257 Y22.431 E.53462
G1 X178.91 Y22.431 E.03121
G1 X178.91 Y33.606 E.53462
G1 X179.562 Y33.606 E.03121
G1 X179.562 Y22.431 E.53462
G1 X180.214 Y22.431 E.03121
G1 X180.214 Y33.606 E.53462
G1 X180.866 Y33.606 E.03121
G1 X180.866 Y22.431 E.53462
G1 X181.519 Y22.431 E.03121
G1 X181.519 Y33.606 E.53462
G1 X182.171 Y33.606 E.03121
G1 X182.171 Y22.431 E.53462
G1 X182.823 Y22.431 E.03121
G1 X182.823 Y33.606 E.53462
G1 X183.476 Y33.606 E.03121
G1 X183.476 Y22.431 E.53462
G1 X184.128 Y22.431 E.03121
G1 X184.128 Y33.606 E.53462
G1 X184.78 Y33.606 E.03121
M73 P2 R68
G1 X184.78 Y22.431 E.53462
G1 X185.433 Y22.431 E.03121
G1 X185.433 Y33.606 E.53462
G1 X186.085 Y33.606 E.03121
G1 X186.085 Y22.431 E.53462
G1 X186.737 Y22.431 E.03121
G1 X186.737 Y33.606 E.53462
G1 X187.39 Y33.606 E.03121
G1 X187.39 Y22.431 E.53462
G1 X188.042 Y22.431 E.03121
G1 X188.042 Y33.606 E.53462
G1 X188.694 Y33.606 E.03121
G1 X188.694 Y22.431 E.53462
G1 X189.346 Y22.431 E.03121
G1 X189.346 Y33.606 E.53462
G1 X189.999 Y33.606 E.03121
G1 X189.999 Y22.431 E.53462
G1 X190.651 Y22.431 E.03121
G1 X190.651 Y33.606 E.53462
G1 X191.303 Y33.606 E.03121
G1 X191.303 Y22.431 E.53462
G1 X191.956 Y22.431 E.03121
G1 X191.956 Y33.606 E.53462
G1 X192.608 Y33.606 E.03121
G1 X192.608 Y22.431 E.53462
G1 X193.26 Y22.431 E.03121
G1 X193.26 Y33.606 E.53462
G1 X193.913 Y33.606 E.03121
G1 X193.913 Y22.431 E.53462
G1 X194.565 Y22.431 E.03121
G1 X194.565 Y33.606 E.53462
G1 X195.217 Y33.606 E.03121
G1 X195.217 Y22.431 E.53462
G1 X195.87 Y22.431 E.03121
G1 X195.87 Y33.606 E.53462
G1 X196.522 Y33.606 E.03121
G1 X196.522 Y22.431 E.53462
G1 X197.174 Y22.431 E.03121
G1 X197.174 Y33.606 E.53462
G1 X197.827 Y33.606 E.03121
G1 X197.827 Y22.431 E.53462
G1 X198.479 Y22.431 E.03121
G1 X198.479 Y33.606 E.53462
G1 X198.529 Y33.606 E.00238
G1 X199.131 Y33.004 E.04076
G1 X199.131 Y23.033 E.47697
; stop printing object Cube id:2816 copy 0
; printing object Cube id:2816 copy 0
G1 E-2.8 F3600
;WIPE_START
G1 F900
G1 X199.131 Y24.033 E-1.2
;WIPE_END
G1 Z.6 F9000
G1 X137.694 Y22.239 Z.6
G1 Z.2
G1 E4 F2400
G1 F900
G1 X137.694 Y32.497 E.49074
G1 X136.707 Y33.484 E.06678
G1 X115.296 Y33.484 E1.0243
G1 X114.309 Y32.497 E.06678
G1 X114.309 Y22.239 E.49074
G1 X115.296 Y21.252 E.06678
G1 X136.707 Y21.252 E1.0243
G1 X137.632 Y22.177 E.06257
G1 E-2.8 F3600
;WIPE_START
G1 F900
G1 X136.925 Y21.469 E-1.2
;WIPE_END
G1 Z.6 F9000
G1 X114.912 Y32.353 Z.6
G1 Z.2
G1 E4 F2400
G1 F900
G1 X114.912 Y22.383 E.47697
G1 X115.514 Y21.78 E.04076
G1 X115.564 Y21.78 E.00238
G1 X115.564 Y32.955 E.53462
G1 X116.217 Y32.955 E.03121
G1 X116.217 Y21.78 E.53462
G1 X116.869 Y21.78 E.03121
G1 X116.869 Y32.955 E.53462
G1 X117.521 Y32.955 E.03121
G1 X117.521 Y21.78 E.53462
G1 X118.174 Y21.78 E.03121
G1 X118.174 Y32.955 E.53462
G1 X118.826 Y32.955 E.03121
G1 X118.826 Y21.78 E.53462
G1 X119.478 Y21.78 E.03121
G1 X119.478 Y32.955 E.53462
G1 X120.13 Y32.955 E.03121
G1 X120.13 Y21.78 E.53462
G1 X120.783 Y21.78 E.03121
G1 X120.783 Y32.955 E.53462
G1 X121.435 Y32.955 E.03121
G1 X121.435 Y21.78 E.53462
G1 X122.087 Y21.78 E.03121
G1 X122.087 Y32.955 E.53462
G1 X122.74 Y32.955 E.03121
G1 X122.74 Y21.78 E.53462
G1 X123.392 Y21.78 E.03121
G1 X123.392 Y32.955 E.53462
G1 X124.044 Y32.955 E.03121
G1 X124.044 Y21.78 E.53462
G1 X124.697 Y21.78 E.03121
G1 X124.697 Y32.955 E.53462
G1 X125.349 Y32.955 E.03121
G1 X125.349 Y21.78 E.53462
G1 X126.001 Y21.78 E.03121
M73 P2 R67
G1 X126.001 Y32.955 E.53462
G1 X126.654 Y32.955 E.03121
G1 X126.654 Y21.78 E.53462
G1 X127.306 Y21.78 E.03121
G1 X127.306 Y32.955 E.53462
G1 X127.958 Y32.955 E.03121
G1 X127.958 Y21.78 E.53462
G1 X128.61 Y21.78 E.03121
M73 P3 R67
G1 X128.61 Y32.955 E.53462
G1 X129.263 Y32.955 E.03121
G1 X129.263 Y21.78 E.53462
G1 X129.915 Y21.78 E.03121
G1 X129.915 Y32.955 E.53462
G1 X130.567 Y32.955 E.03121
G1 X130.567 Y21.78 E.53462
G1 X131.22 Y21.78 E.03121
G1 X131.22 Y32.955 E.53462
G1 X131.872 Y32.955 E.03121
G1 X131.872 Y21.78 E.53462
G1 X132.524 Y21.78 E.03121
G1 X132.524 Y32.955 E.53462
G1 X133.177 Y32.955 E.03121
G1 X133.177 Y21.78 E.53462
G1 X133.829 Y21.78 E.03121
G1 X133.829 Y32.955 E.53462
G1 X134.481 Y32.955 E.03121
G1 X134.481 Y21.78 E.53462
G1 X135.134 Y21.78 E.03121
G1 X135.134 Y32.955 E.53462
G1 X135.786 Y32.955 E.03121
G1 X135.786 Y21.78 E.53462
G1 X136.438 Y21.78 E.03121
G1 X136.438 Y32.955 E.53462
G1 X136.488 Y32.955 E.00238
G1 X137.091 Y32.353 E.04076
G1 X137.091 Y22.383 E.47697
; stop printing object Cube id:2816 copy 0
; printing object Cube id:2816 copy 0
G1 E-2.8 F3600
;WIPE_START
G1 F900
G1 X137.091 Y23.383 E-1.2
;WIPE_END
G1 Z.6 F9000
G1 X137.895 Y10.11 Z.6
G1 Z.2
G1 E4 F2400
G1 F900
G1 X137.895 Y20.368 E.49074
G1 X136.908 Y21.355 E.06678
G1 X115.497 Y21.355 E1.0243
G1 X114.51 Y20.368 E.06678
G1 X114.51 Y10.11 E.49074
G1 X115.497 Y9.123 E.06678
G1 X136.908 Y9.123 E1.0243
G1 X137.833 Y10.048 E.06257
G1 E-2.8 F3600
;WIPE_START
G1 F900
G1 X137.125 Y9.341 E-1.2
;WIPE_END
G1 Z.6 F9000
G1 X115.113 Y20.225 Z.6
G1 Z.2
G1 E4 F2400
G1 F900
G1 X115.113 Y10.254 E.47697
G1 X115.715 Y9.652 E.04076
G1 X115.765 Y9.652 E.00238
G1 X115.765 Y20.827 E.53462
G1 X116.418 Y20.827 E.03121
G1 X116.418 Y9.652 E.53462
G1 X117.07 Y9.652 E.03121
G1 X117.07 Y20.827 E.53462
G1 X117.722 Y20.827 E.03121
G1 X117.722 Y9.652 E.53462
G1 X118.374 Y9.652 E.03121
G1 X118.374 Y20.827 E.53462
G1 X119.027 Y20.827 E.03121
G1 X119.027 Y9.652 E.53462
G1 X119.679 Y9.652 E.03121
G1 X119.679 Y20.827 E.53462
G1 X120.331 Y20.827 E.03121
G1 X120.331 Y9.652 E.53462
G1 X120.984 Y9.652 E.03121
G1 X120.984 Y20.827 E.53462
G1 X121.636 Y20.827 E.03121
G1 X121.636 Y9.652 E.53462
G1 X122.288 Y9.652 E.03121
G1 X122.288 Y20.827 E.53462
G1 X122.941 Y20.827 E.03121
G1 X122.941 Y9.652 E.53462
G1 X123.593 Y9.652 E.03121
G1 X123.593 Y20.827 E.53462
G1 X124.245 Y20.827 E.03121
G1 X124.245 Y9.652 E.53462
G1 X124.898 Y9.652 E.03121
G1 X124.898 Y20.827 E.53462
G1 X125.55 Y20.827 E.03121
G1 X125.55 Y9.652 E.53462
G1 X126.202 Y9.652 E.03121
G1 X126.202 Y20.827 E.53462
G1 X126.854 Y20.827 E.03121
G1 X126.854 Y9.652 E.53462
G1 X127.507 Y9.652 E.03121
G1 X127.507 Y20.827 E.53462
G1 X128.159 Y20.827 E.03121
G1 X128.159 Y9.652 E.53462
G1 X128.811 Y9.652 E.03121
G1 X128.811 Y20.827 E.53462
G1 X129.464 Y20.827 E.03121
G1 X129.464 Y9.652 E.53462
G1 X130.116 Y9.652 E.03121
G1 X130.116 Y20.827 E.53462
G1 X130.768 Y20.827 E.03121
G1 X130.768 Y9.652 E.53462
G1 X131.421 Y9.652 E.03121
G1 X131.421 Y20.827 E.53462
G1 X132.073 Y20.827 E.03121
G1 X132.073 Y9.652 E.53462
G1 X132.725 Y9.652 E.03121
G1 X132.725 Y20.827 E.53462
G1 X133.378 Y20.827 E.03121
G1 X133.378 Y9.652 E.53462
G1 X134.03 Y9.652 E.03121
G1 X134.03 Y20.827 E.53462
G1 X134.682 Y20.827 E.03121
G1 X134.682 Y9.652 E.53462
G1 X135.334 Y9.652 E.03121
M73 P4 R67
G1 X135.334 Y20.827 E.53462
G1 X135.987 Y20.827 E.03121
G1 X135.987 Y9.652 E.53462
G1 X136.639 Y9.652 E.03121
G1 X136.639 Y20.827 E.53462
G1 X136.689 Y20.827 E.00238
G1 X137.291 Y20.225 E.04076
G1 X137.291 Y10.254 E.47697
; stop printing object Cube id:2816 copy 0
G1 E-2.8 F3600
;WIPE_START
G1 F900
G1 X137.291 Y11.254 E-1.2
;WIPE_END
TIMELAPSE_TAKE_FRAME
M106 S255
;LAYER_CHANGE
;Z:0.65
;HEIGHT:0.45
;BEFORE_LAYER_CHANGE
;0.65
G92 E0

TIMELAPSE_TAKE_FRAME
;_SET_FAN_SPEED_CHANGING_LAYER
M104 S208 ; set nozzle temperature
G1 Z.65 F9000
G1 X137.139 Y5.385
G1 E4 F2400
;TYPE:Skirt
G1 F2999.461
G1 X177.622 Y4.332 E3.96066
G1 X199.115 Y4.331 E2.10214
G1 X200.646 Y4.724 E.15462
G1 X201.36 Y5.26 E.08727
G1 X202.347 Y6.248 E.13652
G1 X203.151 Y7.609 E.15462
G1 X203.277 Y8.492 E.08727
G1 X203.275 Y18.831 E1.01118
G1 X202.908 Y33.228 E1.40856
G1 X202.475 Y34.749 E.15462
G1 X201.979 Y35.392 E.07941
G1 X200.992 Y36.379 E.13652
G1 X199.631 Y37.183 E.15462
G1 X198.747 Y37.309 E.08727
G1 X177.303 Y37.308 E2.09732
G1 X115.262 Y36.658 E6.06805
G1 X113.735 Y36.248 E.15462
G1 X113.051 Y35.728 E.08404
G1 X112.064 Y34.741 E.13652
G1 X111.26 Y33.38 E.15462
G1 X111.134 Y32.497 E.08727
G1 X111.134 Y22.239 E1.00325
G1 X111.336 Y10.058 E1.19148
G1 X111.755 Y8.534 E.15462
G1 X112.265 Y7.866 E.08217
G1 X113.252 Y6.879 E.13652
G1 X114.613 Y6.075 E.15462
G1 X115.414 Y5.95 E.07926
G1 X137.079 Y5.387 E2.11958
G1 X137.094 Y5.974 F9000
G1 F2999.461
G1 X177.704 Y4.918 E3.97311
G1 X199.115 Y4.918 E2.09407
G1 X200.945 Y5.676 E.19365
G1 X201.932 Y6.663 E.13652
G1 X202.689 Y8.492 E.19366
G1 X202.689 Y18.816 E1.00971
G1 X202.321 Y33.213 E1.40856
G1 X201.564 Y34.977 E.18767
G1 X200.577 Y35.964 E.13652
G1 X198.747 Y36.722 E.19366
G1 X177.309 Y36.721 E2.09672
G1 X115.269 Y36.071 E6.06805
G1 X113.466 Y35.313 E.1912
G1 X112.479 Y34.326 E.13652
G1 X111.722 Y32.497 E.19365
G1 X111.722 Y22.196 E1.00744
G1 X111.923 Y10.068 E1.18634
G1 X112.68 Y8.281 E.18978
G1 X113.667 Y7.294 E.13652
G1 X115.429 Y6.537 E.18756
G1 X137.034 Y5.975 E2.11371
; printing object Cube id:2816 copy 0
G1 E-2.8 F3600
;WIPE_START
M73 P4 R66
G1 F2999.461
G1 X138.034 Y5.949 E-1.2
;WIPE_END
G1 Z1.05 F9000
G1 X178.151 Y18.052 Z1.05
G1 Z.65
G1 E4 F2400
;TYPE:Support
;WIDTH:0.54
G1 X178.151 Y18.156 E.00847
