; generated by PrusaSlicer 2.4.0 on 2024-04-15 at 05:29:43 UTC


;
;

;
;
; 

; external perimeters extrusion width = 0.45mm
; perimeters extrusion width = 0.45mm
; infill extrusion width = 0.45mm
; solid infill extrusion width = 0.45mm
; top infill extrusion width = 0.45mm
; first layer extrusion width = 0.42mm

M201 X500 Y500 Z100 E5000 ; sets maximum accelerations, mm/sec^2
M203 X500 Y500 Z10 E60 ; sets maximum feedrates, mm/sec
M204 P500 R1000 T500 ; sets acceleration (P, T) and retract acceleration (R), mm/sec^2
M205 X8.00 Y8.00 Z0.40 E5.00 ; sets the jerk limits, mm/sec
M205 S0 T0 ; sets the minimum extruding and travel feed rate, mm/sec
M107
;TYPE:Custom
G90 ; use absolute coordinates
M83 ; extruder relative mode
M140 S60 ; set final bed temp
M104 S170 ; set temporary nozzle temp to prevent oozing during homing and auto bed leveling
G4 S10 ; allow partial nozzle warmup
G28 ; home all axis
;G29 ; auto bed levelling
BED_MESH_CALIBRATE AREA_START=84.4344,77.9344 AREA_END=146.566,153.066
G1 Z20 F240
G1 X2 Y10 F3000
M104 S210 ; set final nozzle temp
M190 S60 ; wait for bed temp to stabilize
M109 S210 ; wait for nozzle temp to stabilize
G1 Z0.28 F240
G92 E0
G1 Y140 E10 F1500 ; prime the nozzle
G1 X2.3 F5000
G92 E0
G1 Y10 E10 F1200 ; prime the nozzle
G92 E0
G21 ; set units to millimeters
G90 ; use absolute coordinates
M83 ; use relative distances for extrusion
; Filament gcode
M107
;LAYER_CHANGE
;Z:0.2
;HEIGHT:0.2
;BEFORE_LAYER_CHANGE
G92 E0
;0.2


G1 E-5 F3600
G1 Z.2 F9000
;AFTER_LAYER_CHANGE
;0.2
TIMELAPSE_TAKE_FRAME
G1 X111.19 Y79.627
G1 E5 F2400
M204 S500
;TYPE:Skirt/Brim
;WIDTH:0.42
G1 F1200
G1 X112.396 Y78.528 E.05115
G1 X114 Y78.123 E.05187
G1 X143 Y78.123 E.90927
G1 X144.583 Y78.517 E.05115
G1 X145.797 Y79.607 E.05115
G1 X146.377 Y81.5 E.06207
G1 X146.377 Y107.308 E.8092
G1 X145.905 Y109.03 E.05597
G1 X120.905 Y151.222 E1.53769
G1 X119.759 Y152.383 E.05115
G1 X118 Y152.877 E.0573
G1 X88 Y152.877 E.94063
G1 X86.417 Y152.483 E.05115
G1 X85.203 Y151.393 E.05115
G1 X84.623 Y149.5 E.06207
G1 X84.623 Y120.5 E.90927
G1 X85.19 Y118.627 E.06137
G1 X111.14 Y79.702 E1.46682
G1 E-3.5 F3600
;WIPE_START
G1 F7200
G1 X112.396 Y78.528 E-.81649
G1 X113.638 Y78.214 E-.60851
;WIPE_END
G1 E-.075 F3600
G1 X115.287 Y82.187 F9000
G1 E5 F2400
;TYPE:Perimeter
G1 F1200
G1 X142.313 Y82.187 E.84738
G1 X142.313 Y105.806 E.74055
G1 X139.687 Y105.806 E.08233
G1 X139.687 Y84.813 E.65822
G1 X117.313 Y84.813 E.70153
G1 X117.313 Y148.813 E2.00668
G1 X88.687 Y148.813 E.89754
G1 X88.687 Y121.187 E.86619
G1 X90.313 Y121.187 E.05098
G1 X90.313 Y146.187 E.78386
G1 X114.687 Y146.187 E.76423
G1 X114.687 Y82.187 E2.00668
G1 X115.197 Y82.187 E.01599
G1 X114.31 Y81.81 F9000
;TYPE:External perimeter
G1 F1200
G1 X142.69 Y81.81 E.88984
G1 X142.69 Y106.183 E.7642
G1 X139.31 Y106.183 E.10598
G1 X139.31 Y85.19 E.65822
G1 X117.69 Y85.19 E.67788
G1 X117.69 Y149.19 E2.00668
G1 X88.31 Y149.19 E.92119
G1 X88.31 Y120.81 E.88984
G1 X90.69 Y120.81 E.07462
G1 X90.69 Y145.81 E.78386
G1 X114.31 Y145.81 E.74059
G1 X114.31 Y81.9 E2.00385
G1 X114.791 Y82.169 F9000
G1 E-3.5 F3600
;WIPE_START
G1 F7200
G1 X117.31 Y81.89 E-1.425
;WIPE_END
G1 E-.075 F3600
G1 X142.2 Y83.065 F9000
G1 E5 F2400
;TYPE:Solid infill
;WIDTH:0.421331
G1 F1200
G1 X141.604 Y82.47 E.02649
G1 X141.069 Y82.47 E.01684
G1 X142.03 Y83.431 E.04276
G1 X142.03 Y83.966 E.01684
G1 X140.534 Y82.47 E.06657
G1 X139.999 Y82.47 E.01684
G1 X142.03 Y84.501 E.09038
G1 X142.03 Y85.036 E.01684
G1 X139.464 Y82.47 E.1142
G1 X138.929 Y82.47 E.01684
G1 X142.03 Y85.571 E.13801
G1 X142.03 Y86.107 E.01684
G1 X138.393 Y82.47 E.16182
G1 X137.858 Y82.47 E.01684
G1 X142.03 Y86.642 E.18564
G1 X142.03 Y87.177 E.01684
G1 X139.97 Y85.117 E.09168
G1 X139.97 Y85.652 E.01684
G1 X142.03 Y87.712 E.09168
G1 X142.03 Y88.247 E.01684
G1 X139.97 Y86.187 E.09168
G1 X139.97 Y86.722 E.01684
G1 X142.03 Y88.782 E.09168
G1 X142.03 Y89.317 E.01684
G1 X139.97 Y87.257 E.09168
G1 X139.97 Y87.792 E.01684
G1 X142.03 Y89.853 E.09168
G1 X142.03 Y90.388 E.01684
G1 X139.97 Y88.328 E.09168
G1 X139.97 Y88.863 E.01684
G1 X142.03 Y90.923 E.09168
G1 X142.03 Y91.458 E.01684
G1 X139.97 Y89.398 E.09168
G1 X139.97 Y89.933 E.01684
G1 X142.03 Y91.993 E.09168
G1 X142.03 Y92.528 E.01684
G1 X139.97 Y90.468 E.09168
G1 X139.97 Y91.003 E.01684
G1 X142.03 Y93.064 E.09168
G1 X142.03 Y93.599 E.01684
G1 X139.97 Y91.538 E.09168
G1 X139.97 Y92.074 E.01684
G1 X142.03 Y94.134 E.09168
G1 X142.03 Y94.669 E.01684
G1 X139.97 Y92.609 E.09168
G1 X139.97 Y93.144 E.01684
G1 X142.03 Y95.204 E.09168
G1 X142.03 Y95.739 E.01684
G1 X139.97 Y93.679 E.09168
G1 X139.97 Y94.214 E.01684
G1 X142.03 Y96.274 E.09168
G1 X142.03 Y96.81 E.01684
G1 X139.97 Y94.749 E.09168
G1 X139.97 Y95.285 E.01684
G1 X142.03 Y97.345 E.09168
G1 X142.03 Y97.88 E.01684
G1 X139.97 Y95.82 E.09168
G1 X139.97 Y96.355 E.01684
G1 X142.03 Y98.415 E.09168
G1 X142.03 Y98.95 E.01684
G1 X139.97 Y96.89 E.09168
G1 X139.97 Y97.425 E.01684
G1 X142.03 Y99.485 E.09168
G1 X142.03 Y100.021 E.01684
G1 X139.97 Y97.96 E.09168
G1 X139.97 Y98.495 E.01684
G1 X142.03 Y100.556 E.09168
G1 X142.03 Y101.091 E.01684
G1 X139.97 Y99.031 E.09168
G1 X139.97 Y99.566 E.01684
G1 X142.03 Y101.626 E.09168
G1 X142.03 Y102.161 E.01684
G1 X139.97 Y100.101 E.09168
G1 X139.97 Y100.636 E.01684
G1 X142.03 Y102.696 E.09168
G1 X142.03 Y103.231 E.01684
G1 X139.97 Y101.171 E.09168
G1 X139.97 Y101.706 E.01684
G1 X142.03 Y103.767 E.09168
G1 X142.03 Y104.302 E.01684
G1 X139.97 Y102.242 E.09168
G1 X139.97 Y102.777 E.01684
G1 X142.03 Y104.837 E.09168
G1 X142.03 Y105.372 E.01684
G1 X139.97 Y103.312 E.09168
G1 X139.97 Y103.847 E.01684
G1 X141.646 Y105.523 E.07458
G1 X141.111 Y105.523 E.01684
G1 X139.97 Y104.382 E.05077
G1 X139.97 Y104.917 E.01684
G1 X140.576 Y105.523 E.02696
G1 X140.041 Y105.523 E.01684
G1 X139.8 Y105.283 E.01069
G1 E-3.5 F3600
;WIPE_START
G1 F7200
G1 X140.041 Y105.523 E-.16143
G1 X140.576 Y105.523 E-.2542
G1 X139.97 Y104.917 E-.40693
G1 X139.97 Y104.382 E-.2542
G1 X140.488 Y104.901 E-.34824
;WIPE_END
G1 E-.075 F3600
G1 X139.553 Y84.7 F9000
G1 E5 F2400
G1 F1200
G1 X137.323 Y82.47 E.09923
G1 X136.788 Y82.47 E.01684
G1 X138.848 Y84.53 E.09168
G1 X138.313 Y84.53 E.01684
G1 X136.253 Y82.47 E.09168
G1 X135.718 Y82.47 E.01684
G1 X137.778 Y84.53 E.09168
G1 X137.243 Y84.53 E.01684
G1 X135.183 Y82.47 E.09168
G1 X134.647 Y82.47 E.01684
G1 X136.708 Y84.53 E.09168
G1 X136.172 Y84.53 E.01684
G1 X134.112 Y82.47 E.09168
G1 X133.577 Y82.47 E.01684
G1 X135.637 Y84.53 E.09168
G1 X135.102 Y84.53 E.01684
G1 X133.042 Y82.47 E.09168
G1 X132.507 Y82.47 E.01684
G1 X134.567 Y84.53 E.09168
G1 X134.032 Y84.53 E.01684
G1 X131.972 Y82.47 E.09168
G1 X131.436 Y82.47 E.01684
G1 X133.497 Y84.53 E.09168
G1 X132.962 Y84.53 E.01684
G1 X130.901 Y82.47 E.09168
G1 X130.366 Y82.47 E.01684
G1 X132.426 Y84.53 E.09168
G1 X131.891 Y84.53 E.01684
G1 X129.831 Y82.47 E.09168
G1 X129.296 Y82.47 E.01684
G1 X131.356 Y84.53 E.09168
G1 X130.821 Y84.53 E.01684
G1 X128.761 Y82.47 E.09168
G1 X128.226 Y82.47 E.01684
G1 X130.286 Y84.53 E.09168
G1 X129.751 Y84.53 E.01684
G1 X127.69 Y82.47 E.09168
G1 X127.155 Y82.47 E.01684
G1 X129.215 Y84.53 E.09168
G1 X128.68 Y84.53 E.01684
G1 X126.62 Y82.47 E.09168
G1 X126.085 Y82.47 E.01684
G1 X128.145 Y84.53 E.09168
G1 X127.61 Y84.53 E.01684
G1 X125.55 Y82.47 E.09168
G1 X125.015 Y82.47 E.01684
G1 X127.075 Y84.53 E.09168
G1 X126.54 Y84.53 E.01684
G1 X124.479 Y82.47 E.09168
G1 X123.944 Y82.47 E.01684
G1 X126.005 Y84.53 E.09168
G1 X125.469 Y84.53 E.01684
G1 X123.409 Y82.47 E.09168
G1 X122.874 Y82.47 E.01684
G1 X124.934 Y84.53 E.09168
G1 X124.399 Y84.53 E.01684
G1 X122.339 Y82.47 E.09168
G1 X121.804 Y82.47 E.01684
G1 X123.864 Y84.53 E.09168
G1 X123.329 Y84.53 E.01684
G1 X121.269 Y82.47 E.09168
G1 X120.733 Y82.47 E.01684
G1 X122.794 Y84.53 E.09168
G1 X122.258 Y84.53 E.01684
G1 X120.198 Y82.47 E.09168
G1 X119.663 Y82.47 E.01684
G1 X121.723 Y84.53 E.09168
G1 X121.188 Y84.53 E.01684
G1 X119.128 Y82.47 E.09168
G1 X118.593 Y82.47 E.01684
G1 X120.653 Y84.53 E.09168
G1 X120.118 Y84.53 E.01684
G1 X118.058 Y82.47 E.09168
G1 X117.522 Y82.47 E.01684
G1 X119.583 Y84.53 E.09168
G1 X119.048 Y84.53 E.01684
G1 X116.987 Y82.47 E.09168
G1 X116.452 Y82.47 E.01684
G1 X118.512 Y84.53 E.09168
G1 X117.977 Y84.53 E.01684
G1 X115.917 Y82.47 E.09168
G1 X115.382 Y82.47 E.01684
G1 X117.442 Y84.53 E.09168
G1 X117.03 Y84.53 E.01296
G1 X117.03 Y84.653 E.00388
G1 X114.97 Y82.593 E.09168
G1 X114.97 Y83.128 E.01684
G1 X117.03 Y85.188 E.09168
G1 X117.03 Y85.724 E.01684
G1 X114.97 Y83.663 E.09168
G1 X114.97 Y84.199 E.01684
G1 X117.03 Y86.259 E.09168
G1 X117.03 Y86.794 E.01684
G1 X114.97 Y84.734 E.09168
G1 X114.97 Y85.269 E.01684
G1 X117.03 Y87.329 E.09168
G1 X117.03 Y87.864 E.01684
G1 X114.97 Y85.804 E.09168
G1 X114.97 Y86.339 E.01684
G1 X117.03 Y88.399 E.09168
G1 X117.03 Y88.935 E.01684
G1 X114.97 Y86.874 E.09168
G1 X114.97 Y87.409 E.01684
G1 X117.03 Y89.47 E.09168
G1 X117.03 Y90.005 E.01684
G1 X114.97 Y87.945 E.09168
G1 X114.97 Y88.48 E.01684
G1 X117.03 Y90.54 E.09168
G1 X117.03 Y91.075 E.01684
G1 X114.97 Y89.015 E.09168
G1 X114.97 Y89.55 E.01684
G1 X117.03 Y91.61 E.09168
G1 X117.03 Y92.145 E.01684
G1 X114.97 Y90.085 E.09168
G1 X114.97 Y90.62 E.01684
G1 X117.03 Y92.681 E.09168
G1 X117.03 Y93.216 E.01684
G1 X114.97 Y91.156 E.09168
G1 X114.97 Y91.691 E.01684
G1 X117.03 Y93.751 E.09168
G1 X117.03 Y94.286 E.01684
G1 X114.97 Y92.226 E.09168
G1 X114.97 Y92.761 E.01684
G1 X117.03 Y94.821 E.09168
G1 X117.03 Y95.356 E.01684
G1 X114.97 Y93.296 E.09168
G1 X114.97 Y93.831 E.01684
G1 X117.03 Y95.892 E.09168
G1 X117.03 Y96.427 E.01684
G1 X114.97 Y94.366 E.09168
G1 X114.97 Y94.902 E.01684
G1 X117.03 Y96.962 E.09168
G1 X117.03 Y97.497 E.01684
G1 X114.97 Y95.437 E.09168
G1 X114.97 Y95.972 E.01684
G1 X117.03 Y98.032 E.09168
G1 X117.03 Y98.567 E.01684
G1 X114.97 Y96.507 E.09168
G1 X114.97 Y97.042 E.01684
G1 X117.03 Y99.102 E.09168
G1 X117.03 Y99.638 E.01684
G1 X114.97 Y97.577 E.09168
G1 X114.97 Y98.113 E.01684
G1 X117.03 Y100.173 E.09168
G1 X117.03 Y100.708 E.01684
G1 X114.97 Y98.648 E.09168
G1 X114.97 Y99.183 E.01684
G1 X117.03 Y101.243 E.09168
G1 X117.03 Y101.778 E.01684
G1 X114.97 Y99.718 E.09168
G1 X114.97 Y100.253 E.01684
G1 X117.03 Y102.313 E.09168
G1 X117.03 Y102.849 E.01684
G1 X114.97 Y100.788 E.09168
G1 X114.97 Y101.323 E.01684
G1 X117.03 Y103.384 E.09168
G1 X117.03 Y103.919 E.01684
G1 X114.97 Y101.859 E.09168
G1 X114.97 Y102.394 E.01684
G1 X117.03 Y104.454 E.09168
G1 X117.03 Y104.989 E.01684
G1 X114.97 Y102.929 E.09168
G1 X114.97 Y103.464 E.01684
G1 X117.03 Y105.524 E.09168
G1 X117.03 Y106.059 E.01684
G1 X114.97 Y103.999 E.09168
G1 X114.97 Y104.534 E.01684
G1 X117.03 Y106.595 E.09168
G1 X117.03 Y107.13 E.01684
G1 X114.97 Y105.07 E.09168
G1 X114.97 Y105.605 E.01684
G1 X117.03 Y107.665 E.09168
G1 X117.03 Y108.2 E.01684
G1 X114.97 Y106.14 E.09168
G1 X114.97 Y106.675 E.01684
G1 X117.03 Y108.735 E.09168
G1 X117.03 Y109.27 E.01684
G1 X114.97 Y107.21 E.09168
G1 X114.97 Y107.745 E.01684
G1 X117.03 Y109.806 E.09168
G1 X117.03 Y110.341 E.01684
G1 X114.97 Y108.28 E.09168
G1 X114.97 Y108.816 E.01684
G1 X117.03 Y110.876 E.09168
G1 X117.03 Y111.411 E.01684
G1 X114.97 Y109.351 E.09168
G1 X114.97 Y109.886 E.01684
G1 X117.03 Y111.946 E.09168
G1 X117.03 Y112.481 E.01684
G1 X114.97 Y110.421 E.09168
G1 X114.97 Y110.956 E.01684
G1 X117.03 Y113.016 E.09168
G1 X117.03 Y113.552 E.01684
G1 X114.97 Y111.491 E.09168
G1 X114.97 Y112.027 E.01684
G1 X117.03 Y114.087 E.09168
G1 X117.03 Y114.622 E.01684
G1 X114.97 Y112.562 E.09168
G1 X114.97 Y113.097 E.01684
G1 X117.03 Y115.157 E.09168
G1 X117.03 Y115.692 E.01684
G1 X114.97 Y113.632 E.09168
G1 X114.97 Y114.167 E.01684
G1 X117.03 Y116.227 E.09168
G1 X117.03 Y116.763 E.01684
G1 X114.97 Y114.702 E.09168
G1 X114.97 Y115.237 E.01684
G1 X117.03 Y117.298 E.09168
G1 X117.03 Y117.833 E.01684
G1 X114.97 Y115.773 E.09168
G1 X114.97 Y116.308 E.01684
G1 X117.03 Y118.368 E.09168
G1 X117.03 Y118.903 E.01684
G1 X114.97 Y116.843 E.09168
G1 X114.97 Y117.378 E.01684
G1 X117.03 Y119.438 E.09168
G1 X117.03 Y119.973 E.01684
G1 X114.97 Y117.913 E.09168
G1 X114.97 Y118.448 E.01684
G1 X117.03 Y120.509 E.09168
G1 X117.03 Y121.044 E.01684
G1 X114.97 Y118.984 E.09168
G1 X114.97 Y119.519 E.01684
G1 X117.03 Y121.579 E.09168
G1 X117.03 Y122.114 E.01684
G1 X114.97 Y120.054 E.09168
G1 X114.97 Y120.589 E.01684
G1 X117.03 Y122.649 E.09168
G1 X117.03 Y123.184 E.01684
G1 X114.97 Y121.124 E.09168
G1 X114.97 Y121.659 E.01684
G1 X117.03 Y123.72 E.09168
G1 X117.03 Y124.255 E.01684
G1 X114.97 Y122.194 E.09168
G1 X114.97 Y122.73 E.01684
G1 X117.03 Y124.79 E.09168
G1 X117.03 Y125.325 E.01684
G1 X114.97 Y123.265 E.09168
G1 X114.97 Y123.8 E.01684
G1 X117.03 Y125.86 E.09168
G1 X117.03 Y126.395 E.01684
G1 X114.97 Y124.335 E.09168
G1 X114.97 Y124.87 E.01684
G1 X117.03 Y126.93 E.09168
G1 X117.03 Y127.466 E.01684
G1 X114.97 Y125.405 E.09168
G1 X114.97 Y125.941 E.01684
G1 X117.03 Y128.001 E.09168
G1 X117.03 Y128.536 E.01684
G1 X114.97 Y126.476 E.09168
G1 X114.97 Y127.011 E.01684
G1 X117.03 Y129.071 E.09168
G1 X117.03 Y129.606 E.01684
G1 X114.97 Y127.546 E.09168
G1 X114.97 Y128.081 E.01684
G1 X117.03 Y130.141 E.09168
G1 X117.03 Y130.677 E.01684
G1 X114.97 Y128.616 E.09168
G1 X114.97 Y129.151 E.01684
G1 X117.03 Y131.212 E.09168
G1 X117.03 Y131.747 E.01684
G1 X114.97 Y129.687 E.09168
G1 X114.97 Y130.222 E.01684
G1 X117.03 Y132.282 E.09168
G1 X117.03 Y132.817 E.01684
G1 X114.97 Y130.757 E.09168
G1 X114.97 Y131.292 E.01684
G1 X117.03 Y133.352 E.09168
G1 X117.03 Y133.887 E.01684
G1 X114.97 Y131.827 E.09168
G1 X114.97 Y132.362 E.01684
G1 X117.03 Y134.423 E.09168
G1 X117.03 Y134.958 E.01684
G1 X114.97 Y132.898 E.09168
G1 X114.97 Y133.433 E.01684
G1 X117.03 Y135.493 E.09168
G1 X117.03 Y136.028 E.01684
G1 X114.97 Y133.968 E.09168
G1 X114.97 Y134.503 E.01684
G1 X117.03 Y136.563 E.09168
G1 X117.03 Y137.098 E.01684
G1 X114.97 Y135.038 E.09168
G1 X114.97 Y135.573 E.01684
G1 X117.03 Y137.634 E.09168
G1 X117.03 Y138.169 E.01684
G1 X114.97 Y136.108 E.09168
G1 X114.97 Y136.644 E.01684
G1 X117.03 Y138.704 E.09168
G1 X117.03 Y139.239 E.01684
G1 X114.97 Y137.179 E.09168
G1 X114.97 Y137.714 E.01684
G1 X117.03 Y139.774 E.09168
G1 X117.03 Y140.309 E.01684
G1 X114.97 Y138.249 E.09168
G1 X114.97 Y138.784 E.01684
G1 X117.03 Y140.844 E.09168
G1 X117.03 Y141.38 E.01684
G1 X114.97 Y139.319 E.09168
G1 X114.97 Y139.855 E.01684
G1 X117.03 Y141.915 E.09168
G1 X117.03 Y142.45 E.01684
G1 X114.97 Y140.39 E.09168
G1 X114.97 Y140.925 E.01684
G1 X117.03 Y142.985 E.09168
G1 X117.03 Y143.52 E.01684
G1 X114.97 Y141.46 E.09168
G1 X114.97 Y141.995 E.01684
G1 X117.03 Y144.055 E.09168
G1 X117.03 Y144.591 E.01684
G1 X114.97 Y142.53 E.09168
G1 X114.97 Y143.065 E.01684
G1 X117.03 Y145.126 E.09168
G1 X117.03 Y145.661 E.01684
G1 X114.97 Y143.601 E.09168
G1 X114.97 Y144.136 E.01684
G1 X117.03 Y146.196 E.09168
G1 X117.03 Y146.731 E.01684
G1 X114.97 Y144.671 E.09168
G1 X114.97 Y145.206 E.01684
G1 X117.03 Y147.266 E.09168
G1 X117.03 Y147.801 E.01684
G1 X114.97 Y145.741 E.09168
G1 X114.97 Y146.276 E.01684
G1 X117.03 Y148.337 E.09168
G1 X117.03 Y148.53 E.00609
G1 X116.688 Y148.53 E.01075
G1 X114.628 Y146.47 E.09168
G1 X114.093 Y146.47 E.01684
G1 X116.153 Y148.53 E.09168
G1 X115.618 Y148.53 E.01684
G1 X113.558 Y146.47 E.09168
G1 X113.023 Y146.47 E.01684
G1 X115.083 Y148.53 E.09168
G1 X114.548 Y148.53 E.01684
G1 X112.488 Y146.47 E.09168
G1 X111.952 Y146.47 E.01684
G1 X114.013 Y148.53 E.09168
G1 X113.478 Y148.53 E.01684
G1 X111.417 Y146.47 E.09168
G1 X110.882 Y146.47 E.01684
G1 X112.942 Y148.53 E.09168
G1 X112.407 Y148.53 E.01684
G1 X110.347 Y146.47 E.09168
G1 X109.812 Y146.47 E.01684
G1 X111.872 Y148.53 E.09168
G1 X111.337 Y148.53 E.01684
G1 X109.277 Y146.47 E.09168
G1 X108.742 Y146.47 E.01684
G1 X110.802 Y148.53 E.09168
G1 X110.267 Y148.53 E.01684
G1 X108.206 Y146.47 E.09168
G1 X107.671 Y146.47 E.01684
G1 X109.731 Y148.53 E.09168
G1 X109.196 Y148.53 E.01684
G1 X107.136 Y146.47 E.09168
G1 X106.601 Y146.47 E.01684
G1 X108.661 Y148.53 E.09168
G1 X108.126 Y148.53 E.01684
G1 X106.066 Y146.47 E.09168
G1 X105.531 Y146.47 E.01684
G1 X107.591 Y148.53 E.09168
G1 X107.056 Y148.53 E.01684
G1 X104.995 Y146.47 E.09168
