; HEADER_BLOCK_START
; generated by OrcaSlicer 2.0.0 on 2024-04-13 at 23:13:21
; total layer number: 230
; filament_density: 1.24
; filament_diameter: 1.75
; max_z_height: 41.42
; HEADER_BLOCK_END

; THUMBNAIL_BLOCK_START

;
; THUMBNAIL_BLOCK_END

; THUMBNAIL_BLOCK_START

;
; THUMBNAIL_BLOCK_END

; external perimeters extrusion width = 0.63mm
; perimeters extrusion width = 0.66mm
; infill extrusion width = 0.66mm
; solid infill extrusion width = 0.66mm
; top infill extrusion width = 0.60mm
; first layer extrusion width = 0.63mm

; EXECUTABLE_BLOCK_START
M73 P0 R86
;TYPE:Custom
G90 ; use absolute coordinates
M83 ; extruder relative mode
M140 S60 ; set final bed temp
M104 S170 ; set temporary nozzle temp to prevent oozing during homing and auto bed leveling
G4 S10 ; allow partial nozzle warmup
G28 ; home all axis
;G29 ; auto bed levelling
BED_MESH_CALIBRATE AREA_START=85.5323,85.5323 AREA_END=134.468,134.468
G1 Z20 F240
G1 X2 Y10 F3000
M104 S215 ; set final nozzle temp
M190 S60 ; wait for bed temp to stabilize
M109 S215 ; wait for nozzle temp to stabilize
G1 Z0.28 F240
G92 E0
G1 Y140 E10 F1500 ; prime the nozzle
G1 X2.3 F5000
G92 E0
G1 Y10 E10 F1200 ; prime the nozzle
G92 E0
G90
G21
M83 ; use relative distances for extrusion
; filament start gcode
M106 S0
;LAYER_CHANGE
;Z:0.2
;HEIGHT:0.2
;BEFORE_LAYER_CHANGE
;0.2
G92 E0

G1 E-4 F3600
TIMELAPSE_TAKE_FRAME
;_SET_FAN_SPEED_CHANGING_LAYER
M73 P0 R85
G1 Z.4 F9000
G1 X88.799 Y87.694
G1 Z.4
G1 Z.2
G1 E4 F2400
;TYPE:Skirt
;WIDTH:0.63
G1 F3000
G1 X90.165 Y86.782 E.07855
G1 X91.608 Y86.184 E.07476
G1 X93.357 Y85.852 E.08514
G1 X126.069 Y85.827 E1.56496
G1 X127.488 Y85.963 E.06816
G1 X128.861 Y86.343 E.06816
G1 X130.147 Y86.956 E.06816
G1 X131.307 Y87.783 E.06816
G1 X132.306 Y88.799 E.06816
G1 X133.113 Y89.973 E.06816
G1 X133.774 Y91.476 E.07855
G1 X134.094 Y92.865 E.06816
G1 X134.174 Y94 E.05445
G1 X134.169 Y126.287 E1.54461
G1 X134.037 Y127.488 E.05776
G1 X133.704 Y128.73 E.06156
G1 X133.113 Y130.027 E.06816
G1 X132.442 Y131.031 E.05776
G1 X131.203 Y132.304 E.08502
G1 X129.713 Y133.282 E.08526
G1 X128.049 Y133.913 E.08514
G1 X126.287 Y134.169 E.08514
G1 X93.574 Y134.163 E1.56498
G1 X92.299 Y133.995 E.06156
G1 X91.139 Y133.657 E.05776
G1 X89.973 Y133.113 E.06156
G1 X88.969 Y132.442 E.05776
G1 X87.696 Y131.203 E.08502
G1 X86.718 Y129.713 E.08526
G1 X86.087 Y128.049 E.08514
G1 X85.831 Y126.287 E.08514
G1 X85.837 Y93.574 E1.56498
G1 X86.005 Y92.299 E.06156
G1 X86.343 Y91.139 E.05776
G1 X86.887 Y89.973 E.06156
G1 X87.558 Y88.969 E.05776
G1 X88.757 Y87.737 E.08227
G1 X89.167 Y88.152 F9000
G1 F3000
G1 X90.447 Y87.297 E.07365
G1 X91.773 Y86.748 E.06864
G1 X93.395 Y86.437 E.07902
G1 X126.056 Y86.414 E1.56251
G1 X127.373 Y86.539 E.06327
G1 X128.648 Y86.89 E.06326
G1 X129.842 Y87.458 E.06326
G1 X131.084 Y88.369 E.07366
G1 X131.984 Y89.337 E.06326
G1 X132.703 Y90.447 E.06327
G1 X133.218 Y91.665 E.06326
G1 X133.529 Y93.066 E.06864
G1 X133.587 Y94 E.04478
G1 X133.577 Y126.387 E1.5494
G1 X133.419 Y127.587 E.05788
G1 X133.031 Y128.85 E.06319
G1 X132.542 Y129.842 E.05293
G1 X131.848 Y130.833 E.05788
G1 X130.664 Y131.984 E.07899
G1 X129.453 Y132.755 E.06868
G1 X127.909 Y133.343 E.07902
G1 X126.275 Y133.582 E.07903
G1 X93.613 Y133.577 E1.56253
G1 X92.413 Y133.419 E.05788
G1 X91.15 Y133.031 E.06319
G1 X90.158 Y132.542 E.05293
G1 X89.167 Y131.848 E.05788
G1 X88.016 Y130.664 E.07899
G1 X87.245 Y129.453 E.06868
G1 X86.657 Y127.909 E.07902
G1 X86.418 Y126.275 E.07903
G1 X86.423 Y93.613 E1.56253
G1 X86.581 Y92.413 E.05788
G1 X86.969 Y91.15 E.06319
G1 X87.458 Y90.158 E.05293
G1 X88.152 Y89.167 E.05788
G1 X89.124 Y88.195 E.06577
; printing object X-COVER_BLTOUCH_ONLY.stl id:101542071139648 copy 0
G1 E-2.8 F3600
;WIPE_START
G1 F3000
G1 X89.952 Y87.633 E-1.2
;WIPE_END
G1 Z.6 F9000
G1 X120.819 Y91.181 Z.6
G1 Z.2
G1 E4 F2400
;TYPE:Inner wall
;WIDTH:0.629999
G1 F900
G1 X120.394 Y91.691 E.03179
G1 X119.872 Y92.583 E.04943
G1 X119.587 Y93.318 E.03771
G1 X119.471 Y93.75 E.02139
G1 X119.351 Y94.529 E.03771
G1 X119.332 Y94.976 E.0214
G1 X119.383 Y95.763 E.03772
G1 X119.449 Y96.16 E.01928
G1 X119.735 Y97.107 E.04731
G1 X120.001 Y97.679 E.0302
G1 X120.208 Y98.027 E.01935
G1 X120.799 Y98.817 E.04722
G1 X121.224 Y99.221 E.02804
G1 X121.73 Y99.63 E.03111
G1 X122.404 Y100.039 E.03771
G1 X122.767 Y100.213 E.01927
G1 X123.36 Y100.429 E.0302
G1 X123.75 Y100.529 E.01927
G1 X124.529 Y100.649 E.03771
G1 X124.931 Y100.671 E.01927
G1 X125.918 Y100.597 E.04731
G1 X126.917 Y100.335 E.04942
G1 X127.638 Y100.017 E.03771
G1 X127.989 Y99.819 E.01927
G1 X128.507 Y99.457 E.03021
G1 X128.823 Y99.184 E.02
G1 X128.819 Y126.078 E1.2866
G1 X128.749 Y126.61 E.02565
G1 X128.595 Y127.099 E.02453
G1 X128.278 Y127.638 E.02993
G1 X127.95 Y128.032 E.02454
G1 X127.475 Y128.398 E.02869
G1 X127.016 Y128.623 E.02444
G1 X126.533 Y128.764 E.02405
G1 X125.954 Y128.824 E.02788
G1 X99.188 Y128.82 E1.28046
G1 X99.3 Y128.698 E.00794
G1 X99.897 Y127.855 E.04941
G1 X100.246 Y127.148 E.03771
G1 X100.388 Y126.771 E.01927
G1 X100.617 Y125.763 E.04944
G1 X100.668 Y124.976 E.03772
G1 X100.649 Y124.529 E.0214
G1 X100.529 Y123.75 E.03771
G1 X100.429 Y123.36 E.01927
G1 X100.062 Y122.442 E.04729
G1 X99.746 Y121.895 E.03021
G1 X99.511 Y121.568 E.01927
G1 X98.991 Y120.975 E.03771
G1 X98.662 Y120.673 E.02139
G1 X98.026 Y120.207 E.03771
G1 X97.679 Y120.002 E.01927
G1 X96.77 Y119.612 E.04731
G1 X96.161 Y119.449 E.0302
G1 X95.763 Y119.383 E.01927
G1 X94.977 Y119.332 E.03771
G1 X94.574 Y119.345 E.01927
G1 X93.556 Y119.519 E.04942
G1 X92.809 Y119.772 E.03771
G1 X92.442 Y119.938 E.01927
G1 X91.568 Y120.489 E.04942
G1 X91.177 Y120.831 E.02488
G1 X91.181 Y94.114 E1.27814
G1 X91.215 Y93.662 E.02168
G1 X91.325 Y93.157 E.02475
G1 X91.549 Y92.61 E.02824
G1 X91.869 Y92.153 E.02671
G1 X92.301 Y91.748 E.02832
G1 X92.789 Y91.456 E.02721
G1 X93.314 Y91.265 E.02673
G1 X93.9 Y91.181 E.02832
G1 X120.759 Y91.181 E1.28495
G1 X121.861 Y90.594 F9000
G1 F900
G1 X122.477 Y90.594 E.02947
G1 X122.161 Y90.781 E.01757
G1 X121.471 Y91.338 E.04242
G1 X120.889 Y92.007 E.04241
G1 X120.42 Y92.796 E.04393
G1 X120.051 Y93.839 E.05293
G1 X119.917 Y94.938 E.05293
G1 X120.016 Y96.008 E.05144
G1 X120.267 Y96.859 E.04242
G1 X120.681 Y97.68 E.044
G1 X121.236 Y98.426 E.04447
G1 X121.621 Y98.788 E.02527
G1 X122.034 Y99.128 E.0256
G1 X122.968 Y99.661 E.05142
G1 X123.839 Y99.949 E.04391
G1 X124.906 Y100.084 E.05143
G1 X125.79 Y100.023 E.04242
G1 X126.68 Y99.797 E.04393
G1 X127.653 Y99.339 E.05143
G1 X128.388 Y98.789 E.04393
G1 X129.128 Y97.966 E.05293
G1 X129.41 Y97.501 E.02605
G1 X129.406 Y126.116 E1.36897
G1 X129.324 Y126.737 E.02994
G1 X129.141 Y127.318 E.02913
G1 X128.839 Y127.859 E.02967
G1 X128.498 Y128.315 E.02724
G1 X128.074 Y128.703 E.02749
G1 X127.573 Y129.021 E.0284
G1 X127.009 Y129.256 E.0292
G1 X126.467 Y129.368 E.02648
G1 X125.967 Y129.411 E.02405
G1 X97.507 Y129.407 E1.36151
G1 X98.196 Y128.955 E.03943
G1 X98.834 Y128.34 E.0424
G1 X99.371 Y127.595 E.04392
G1 X99.821 Y126.619 E.05143
G1 X100.031 Y125.725 E.04395
G1 X100.083 Y124.938 E.03772
G1 X100.069 Y124.618 E.01529
G1 X99.877 Y123.561 E.05142
G1 X99.553 Y122.736 E.04241
G1 X99.07 Y121.955 E.04393
G1 X98.714 Y121.549 E.02584
G1 X98.313 Y121.145 E.0272
G1 X97.431 Y120.534 E.05134
G1 X96.618 Y120.179 E.04242
G1 X95.725 Y119.969 E.04391
G1 X94.651 Y119.927 E.05143
G1 X93.744 Y120.075 E.04393
G1 X92.736 Y120.447 E.05143
G1 X91.955 Y120.93 E.04393
G1 X91.166 Y121.66 E.05143
G1 X90.781 Y122.161 E.03022
G1 X90.59 Y122.485 E.01802
G1 X90.594 Y93.884 E1.3683
G1 X90.676 Y93.263 E.02994
G1 X90.796 Y92.88 E.01922
G1 X91.042 Y92.31 E.02966
G1 X91.41 Y91.785 E.0307
G1 X91.838 Y91.373 E.02842
G1 X92.271 Y91.07 E.02527
G1 X92.788 Y90.831 E.02724
G1 X93.282 Y90.67 E.02485
G1 X93.868 Y90.594 E.02827
G1 X121.801 Y90.594 E1.33632
G1 X122.405 Y91.337 F9000
M73 P1 R85
G1 F900
G1 X122.518 Y91.247 E.00695
G1 X123.372 Y90.807 E.04594
G1 X124.32 Y90.564 E.04683
;WIDTH:0.609232
G1 X125.12 Y90.525 E.03698
;WIDTH:0.629986
G1 X125.899 Y90.591 E.03738
;WIDTH:0.67306
G1 X126.286 Y90.691 E.02054
;WIDTH:0.716133
G1 X126.674 Y90.791 E.02195
;WIDTH:0.758671
G1 X127.181 Y91.007 E.03214
;WIDTH:0.779043
G1 X127.712 Y91.318 E.0369
;WIDTH:0.799049
G1 X128.124 Y91.67 E.0334
G1 X128.48 Y92.025 E.03098
;WIDTH:0.783197
G1 X128.912 Y92.646 E.04563
;WIDTH:0.762282
G1 X129.171 Y93.212 E.03647
;WIDTH:0.725887
G1 X129.255 Y93.497 E.01656
;WIDTH:0.700513
G1 X129.338 Y93.783 E.01595
;WIDTH:0.675138
G1 X129.389 Y94.051 E.01406
;WIDTH:0.645809
G1 X129.439 Y94.319 E.01341
;WIDTH:0.61648
G1 X129.476 Y95.12 E.03748
;WIDTH:0.619682
G1 X129.428 Y95.597 E.02249
;WIDTH:0.652824
G1 X129.38 Y96.073 E.02378
G1 X129.11 Y96.832 E.04005
;WIDTH:0.629999
G1 X128.626 Y97.661 E.04594
G1 X127.964 Y98.383 E.04684
G1 X127.316 Y98.858 E.03844
G1 X126.444 Y99.26 E.04594
G1 X125.663 Y99.45 E.03844
G1 X124.88 Y99.498 E.03754
G1 X123.929 Y99.368 E.04594
G1 X123.168 Y99.11 E.03842
G1 X122.339 Y98.626 E.04593
G1 X121.735 Y98.096 E.03845
G1 X121.155 Y97.333 E.04585
G1 X120.799 Y96.611 E.03851
G1 X120.583 Y95.857 E.03753
G1 X120.503 Y94.899 E.04595
G1 X120.632 Y93.929 E.04684
G1 X120.967 Y93.009 E.04684
G1 X121.384 Y92.322 E.03844
G1 X121.904 Y91.735 E.03752
G1 X122.358 Y91.375 E.02771
G1 X122.757 Y91.805 F9000
;TYPE:Outer wall
G1 F900
G1 X122.876 Y91.713 E.0072
G1 X123.632 Y91.334 E.04045
G1 X124.457 Y91.124 E.04075
G1 X125.145 Y91.089 E.03295
G1 X125.822 Y91.173 E.03265
G1 X126.471 Y91.388 E.03269
G1 X126.843 Y91.564 E.01968
G1 X127.357 Y91.876 E.02875
G1 X127.977 Y92.46 E.04076
G1 X128.377 Y93.021 E.03295
G1 X128.596 Y93.48 E.02434
G1 X128.746 Y93.928 E.0226
G1 X128.876 Y94.457 E.02607
G1 X128.911 Y95.145 E.03295
G1 X128.788 Y95.982 E.04045
G1 X128.558 Y96.631 E.03296
G1 X128.124 Y97.357 E.04045
G1 X127.54 Y97.977 E.04075
G1 X126.979 Y98.377 E.03295
G1 X126.207 Y98.723 E.04045
G1 X125.536 Y98.877 E.03295
G1 X124.855 Y98.911 E.03265
G1 X124.018 Y98.788 E.04045
G1 X123.369 Y98.558 E.03294
G1 X122.643 Y98.124 E.04045
G1 X122.131 Y97.663 E.03296
G1 X121.628 Y96.986 E.04036
G1 X121.331 Y96.363 E.03303
G1 X121.15 Y95.705 E.03265
G1 X121.089 Y94.861 E.04046
G1 X121.212 Y94.018 E.04075
G1 X121.514 Y93.222 E.04075
G1 X121.879 Y92.638 E.03295
G1 X122.337 Y92.132 E.03264
G1 X122.709 Y91.842 E.02258
G1 E-2.8 F3600
;WIPE_START
G1 F900
G1 X122.876 Y91.713 E-.25266
G1 X123.581 Y91.359 E-.94734
;WIPE_END
G1 Z.6 F9000
G1 X121.861 Y90.007 Z.6
G1 Z.2
G1 E4 F2400
;TYPE:Inner wall
G1 F900
G1 X123.463 Y90.007 E.07666
G1 X124.477 Y89.991 E.04851
;WIDTH:0.598068
G1 X125.306 Y89.986 E.03748
;WIDTH:0.621509
G1 X125.758 Y90.006 E.02132
;WIDTH:0.654428
G1 X126.209 Y90.026 E.02253
;WIDTH:0.686167
G1 X126.623 Y90.114 E.02219
;WIDTH:0.717905
G1 X127.038 Y90.201 E.02328
;WIDTH:0.758671
G1 X127.532 Y90.384 E.03072
;WIDTH:0.779043
G1 X128.132 Y90.714 E.04107
;WIDTH:0.799049
G1 X128.615 Y91.097 E.03803
G1 X128.966 Y91.461 E.03117
;WIDTH:0.785271
G1 X129.309 Y91.903 E.03382
G1 X129.567 Y92.355 E.03148
;WIDTH:0.760231
G1 X129.802 Y92.951 E.03741
;WIDTH:0.725887
G1 X129.91 Y93.414 E.02649
;WIDTH:0.683108
G1 X130.013 Y94.477 E.05572
;WIDTH:0.600371
G1 X130.016 Y95.331 E.03878
;WIDTH:0.619302
G1 X130.003 Y95.844 E.0241
;WIDTH:0.646007
G1 X129.997 Y96.989 E.05626
;WIDTH:0.629999
G1 X129.993 Y126.155 E1.39531
G1 X129.9 Y126.865 E.03424
G1 X129.688 Y127.537 E.03374
G1 X129.465 Y127.99 E.02413
G1 X129.049 Y128.583 E.03469
G1 X128.62 Y129.006 E.0288
G1 X128.209 Y129.32 E.02476
G1 X127.698 Y129.618 E.02829
G1 X127.192 Y129.815 E.02595
G1 X126.557 Y129.949 E.03108
G1 X125.979 Y129.998 E.02773
G1 X96.988 Y129.994 E1.38694
;WIDTH:0.650798
G1 X96.119 Y129.983 E.04305
G1 X95.614 Y130 E.02503
;WIDTH:0.617585
G1 X95.109 Y130.016 E.02366
;WIDTH:0.598111
G1 X94.477 Y130.009 E.02857
;WIDTH:0.629361
G1 X94.152 Y129.992 E.01558
;WIDTH:0.66061
G1 X93.826 Y129.975 E.01641
;WIDTH:0.685952
G1 X93.466 Y129.912 E.01916
;WIDTH:0.711294
G1 X93.106 Y129.848 E.01992
;WIDTH:0.759411
G1 X92.487 Y129.628 E.03834
;WIDTH:0.774259
G1 X92.024 Y129.386 E.03109
;WIDTH:0.787555
G1 X91.529 Y129.031 E.03699
;WIDTH:0.795441
G1 X91.227 Y128.76 E.02493
G1 X90.733 Y128.154 E.04792
;WIDTH:0.778714
G1 X90.437 Y127.651 E.03496
;WIDTH:0.767146
G1 X90.197 Y127.053 E.03808
;WIDTH:0.724307
G1 X90.123 Y126.727 E.01856
;WIDTH:0.698037
G1 X90.048 Y126.401 E.01784
;WIDTH:0.671766
G1 X90.008 Y125.973 E.02204
;WIDTH:0.641782
G1 X89.994 Y125.541 E.02109
;WIDTH:0.614169
G1 X89.98 Y125.109 E.02012
;WIDTH:0.616369
G1 X89.996 Y124.251 E.04008
;WIDTH:0.629999
G1 X90.007 Y93.845 E1.45462
G1 X90.1 Y93.135 E.03424
G1 X90.236 Y92.703 E.02168
G1 X90.424 Y92.237 E.02405
G1 X90.772 Y91.672 E.03173
G1 X91.167 Y91.181 E.03016
G1 X91.575 Y90.823 E.02595
G1 X92.054 Y90.519 E.02716
G1 X92.666 Y90.251 E.03193
G1 X93.296 Y90.066 E.03145
G1 X93.836 Y90.007 E.02595
G1 X121.801 Y90.007 E1.33785
G1 E-2.8 F3600
;WIPE_START
G1 F900
G1 X122.801 Y90.007 E-1.2
;WIPE_END
G1 Z.6 F9000
G1 X129.963 Y91.713 Z.6
G1 Z.2
G1 E4 F2400
;TYPE:Outer wall
G1 F900
G1 X130.153 Y92.059 E.01892
G1 X130.428 Y92.814 E.03839
G1 X130.515 Y93.307 E.02399
G1 X130.585 Y94.027 E.03461
G1 X130.58 Y126.194 E1.53881
G1 X130.475 Y126.992 E.03853
G1 X130.234 Y127.757 E.03834
G1 X129.971 Y128.289 E.02842
G1 X129.63 Y128.777 E.0285
G1 X129.244 Y129.239 E.02878
G1 X128.791 Y129.637 E.02885
G1 X128.29 Y129.972 E.02883
G1 X127.666 Y130.26 E.03289
G1 X127.185 Y130.424 E.02428
G1 X126.646 Y130.529 E.02628
G1 X125.992 Y130.585 E.0314
G1 X93.806 Y130.58 E1.53974
G1 X93.008 Y130.475 E.03853
G1 X92.243 Y130.234 E.03834
G1 X91.711 Y129.971 E.02842
G1 X91.104 Y129.547 E.03542
G1 X90.723 Y129.201 E.02461
G1 X90.325 Y128.734 E.02938
G1 X89.986 Y128.208 E.02993
G1 X89.687 Y127.53 E.03547
G1 X89.525 Y126.996 E.02669
G1 X89.448 Y126.493 E.02432
G1 X89.415 Y125.992 E.02403
G1 X89.42 Y93.806 E1.53974
G1 X89.525 Y93.008 E.03853
G1 X89.766 Y92.243 E.03834
G1 X90.029 Y91.711 E.02842
G1 X90.291 Y91.336 E.0219
G1 X90.636 Y90.891 E.02691
G1 X91.064 Y90.49 E.02806
G1 X91.534 Y90.135 E.02817
G1 X92.06 Y89.847 E.02869
G1 X92.62 Y89.643 E.02852
G1 X93.201 Y89.486 E.02879
G1 X93.803 Y89.42 E.02902
G1 X126.193 Y89.42 E1.5495
G1 X126.992 Y89.525 E.03856
M73 P1 R84
G1 X127.754 Y89.765 E.03823
G1 X128.463 Y90.134 E.03822
G1 X129.097 Y90.62 E.03823
G1 X129.515 Y91.077 E.02961
G1 X129.865 Y91.534 E.02753
G1 X129.934 Y91.66 E.00689
G1 E-2.8 F3600
;WIPE_START
G1 F900
G1 X130.153 Y92.059 E-.54667
G1 X130.339 Y92.571 E-.65333
;WIPE_END
G1 Z.6 F9000
G1 X97.205 Y128.898 Z.6
G1 Z.2
G1 E4 F2400
;TYPE:Inner wall
G1 F900
G1 X96.988 Y129.035 E.01229
;WIDTH:0.644685
G1 X96.241 Y129.333 E.03942
G1 X95.765 Y129.401 E.02358
;WIDTH:0.617568
G1 X95.289 Y129.469 E.02251
;WIDTH:0.598111
G1 X94.489 Y129.454 E.03618
;WIDTH:0.629361
G1 X94.215 Y129.412 E.01329
;WIDTH:0.66061
G1 X93.94 Y129.369 E.014
;WIDTH:0.710456
G1 X93.362 Y129.233 E.03231
;WIDTH:0.759411
G1 X92.779 Y128.973 E.03723
;WIDTH:0.774259
G1 X92.457 Y128.797 E.0219
;WIDTH:0.787555
G1 X91.969 Y128.431 E.03699
;WIDTH:0.79545
G1 X91.478 Y127.904 E.04417
G1 X91.209 Y127.553 E.02711
;WIDTH:0.7725
G1 X90.909 Y126.998 E.03754
;WIDTH:0.737659
G1 X90.782 Y126.622 E.02247
;WIDTH:0.704713
G1 X90.655 Y126.245 E.02141
;WIDTH:0.671766
G1 X90.592 Y125.767 E.02471
;WIDTH:0.632206
G1 X90.53 Y125.289 E.02316
;WIDTH:0.600294
G1 X90.545 Y124.489 E.03633
;WIDTH:0.629999
G1 X90.742 Y123.552 E.04582
G1 X91.156 Y122.665 E.04684
G1 X91.631 Y122.017 E.03845
G1 X92.342 Y121.371 E.04594
G1 X93.029 Y120.955 E.03844
G1 X93.933 Y120.63 E.04594
G1 X94.727 Y120.509 E.03844
G1 X95.686 Y120.555 E.04594
G1 X96.467 Y120.746 E.03842
G1 X97.183 Y121.066 E.03754
G1 X97.966 Y121.619 E.04585
G1 X98.628 Y122.342 E.04692
G1 X99.045 Y123.029 E.03844
G1 X99.326 Y123.762 E.03752
G1 X99.488 Y124.708 E.04593
G1 X99.445 Y125.686 E.04685
G1 X99.254 Y126.467 E.03845
G1 X98.844 Y127.335 E.04594
G1 X98.369 Y127.983 E.03843
G1 X97.8 Y128.522 E.03752
G1 X97.256 Y128.866 E.03078
G1 X96.887 Y128.407 F9000
;TYPE:Outer wall
G1 F900
G1 X96.683 Y128.533 E.01145
G1 X96.037 Y128.774 E.03297
G1 X95.203 Y128.908 E.04045
G1 X94.514 Y128.884 E.03295
G1 X93.692 Y128.688 E.04045
G1 X92.858 Y128.274 E.04453
