; generated by PrusaSlicer 2.4.0 on 2024-04-14 at 07:23:06 UTC


;
;

;
;
; 

; external perimeters extrusion width = 0.45mm
; perimeters extrusion width = 0.45mm
; infill extrusion width = 0.45mm
; solid infill extrusion width = 0.45mm
; top infill extrusion width = 0.45mm
; first layer extrusion width = 0.42mm

M201 X500 Y500 Z100 E5000 ; sets maximum accelerations, mm/sec^2
M203 X500 Y500 Z10 E60 ; sets maximum feedrates, mm/sec
M204 P500 R1000 T500 ; sets acceleration (P, T) and retract acceleration (R), mm/sec^2
M205 X8.00 Y8.00 Z0.40 E5.00 ; sets the jerk limits, mm/sec
M205 S0 T0 ; sets the minimum extruding and travel feed rate, mm/sec
M107
;TYPE:Custom
G90 ; use absolute coordinates
M83 ; extruder relative mode
M140 S60 ; set final bed temp
M104 S170 ; set temporary nozzle temp to prevent oozing during homing and auto bed leveling
G4 S10 ; allow partial nozzle warmup
G28 ; home all axis
;G29 ; auto bed levelling
BED_MESH_CALIBRATE AREA_START=90.9344,90.9344 AREA_END=140.066,140.066
G1 Z20 F240
G1 X2 Y10 F3000
M104 S210 ; set final nozzle temp
M190 S60 ; wait for bed temp to stabilize
M109 S210 ; wait for nozzle temp to stabilize
G1 Z0.28 F240
G92 E0
G1 Y140 E10 F1500 ; prime the nozzle
G1 X2.3 F5000
G92 E0
G1 Y10 E10 F1200 ; prime the nozzle
G92 E0
G21 ; set units to millimeters
G90 ; use absolute coordinates
M83 ; use relative distances for extrusion
; Filament gcode
M107
;LAYER_CHANGE
;Z:0.2
;HEIGHT:0.2
;BEFORE_LAYER_CHANGE
G92 E0
;0.2


G1 E-5 F3600
G1 Z.2 F9000
;AFTER_LAYER_CHANGE
;0.2
TIMELAPSE_TAKE_FRAME
G1 X94.059 Y93.131
G1 E5 F2400
M204 S500
;TYPE:Skirt/Brim
;WIDTH:0.42
G1 F1200
G1 X95.567 Y92.104 E.0858
G1 X97.051 Y91.489 E.07557
G1 X98.84 Y91.149 E.08564
G1 X131.574 Y91.124 E1.5395
G1 X133.024 Y91.263 E.06853
G1 X134.434 Y91.654 E.06881
G1 X135.752 Y92.283 E.06867
G1 X137.104 Y93.274 E.07883
G1 X138.099 Y94.341 E.06864
G1 X138.896 Y95.567 E.06876
G1 X139.466 Y96.911 E.06867
G1 X139.795 Y98.332 E.06859
G1 X139.877 Y99.499 E.05505
G1 X139.865 Y131.936 E1.52554
G1 X139.694 Y133.239 E.0618
G1 X139.346 Y134.434 E.05855
G1 X138.791 Y135.624 E.06175
G1 X138.102 Y136.655 E.05832
G1 X136.828 Y137.964 E.08592
G1 X135.302 Y138.964 E.08578
G1 X133.598 Y139.61 E.08574
G1 X131.792 Y139.872 E.08582
G1 X99.064 Y139.865 E1.53923
G1 X97.762 Y139.694 E.06176
G1 X96.566 Y139.346 E.05859
G1 X95.376 Y138.791 E.06175
G1 X94.345 Y138.102 E.05832
G1 X93.036 Y136.828 E.08592
G1 X92.036 Y135.302 E.08578
G1 X91.391 Y133.6 E.08564
G1 X91.129 Y131.793 E.08588
G1 X91.135 Y99.064 E1.53927
G1 X91.306 Y97.761 E.0618
G1 X91.654 Y96.566 E.05855
G1 X92.209 Y95.376 E.06175
G1 X92.898 Y94.345 E.05832
G1 X93.997 Y93.196 E.07478
G1 E-3.5 F3600
;WIPE_START
G1 F7200
G1 X95.567 Y92.104 E-.90837
G1 X96.572 Y91.688 E-.51663
;WIPE_END
G1 E-.075 F3600
G1 X99.96 Y126.347 F9000
G1 E5 F2400
;TYPE:Perimeter
G1 F1200
G1 X100.488 Y126.312 E.0249
G1 X100.865 Y126.328 E.01774
G1 X101.233 Y126.377 E.01749
G1 X101.748 Y126.502 E.0249
G1 X102.102 Y126.631 E.01774
G1 X102.439 Y126.788 E.01749
G1 X102.892 Y127.063 E.0249
G1 X103.192 Y127.292 E.01774
G1 X103.466 Y127.543 E.0175
G1 X103.819 Y127.945 E.02516
G1 X104.032 Y128.25 E.01748
G1 X104.215 Y128.566 E.01718
G1 X104.369 Y128.897 E.01718
G1 X104.494 Y129.241 E.01718
G1 X104.59 Y129.6 E.01748
G1 X104.671 Y130.123 E.0249
G1 X104.688 Y130.5 E.01774
G1 X104.671 Y130.871 E.0175
G1 X104.59 Y131.4 E.02516
G1 X104.494 Y131.759 E.01748
G1 X104.369 Y132.103 E.01718
G1 X104.215 Y132.434 E.01718
G1 X104.029 Y132.756 E.01748
G1 X103.712 Y133.187 E.02516
G1 X103.461 Y133.461 E.01748
G1 X103.192 Y133.708 E.01718
G1 X102.897 Y133.934 E.01748
G1 X102.444 Y134.209 E.0249
G1 X102.103 Y134.369 E.01774
G1 X101.759 Y134.494 E.0172
G1 X101.4 Y134.59 E.01748
G1 X100.877 Y134.671 E.0249
G1 X100.5 Y134.688 E.01774
G1 X100.129 Y134.671 E.0175
G1 X99.6 Y134.59 E.02516
G1 X99.241 Y134.494 E.01748
G1 X98.897 Y134.369 E.01718
G1 X98.561 Y134.212 E.01748
G1 X98.108 Y133.937 E.0249
G1 X97.808 Y133.708 E.01774
G1 X97.539 Y133.461 E.0172
G1 X97.292 Y133.192 E.01718
G1 X97.07 Y132.902 E.01718
G1 X96.87 Y132.588 E.01748
G1 X96.633 Y132.109 E.02516
G1 X96.506 Y131.759 E.01748
G1 X96.41 Y131.4 E.01748
G1 X96.329 Y130.877 E.0249
G1 X96.312 Y130.5 E.01774
G1 X96.329 Y130.129 E.01749
G1 X96.409 Y129.605 E.0249
G1 X96.506 Y129.241 E.01774
G1 X96.631 Y128.897 E.0172
G1 X96.788 Y128.561 E.01748
G1 X97.063 Y128.108 E.0249
G1 X97.292 Y127.808 E.01774
G1 X97.539 Y127.539 E.0172
G1 X97.813 Y127.288 E.01748
G1 X98.244 Y126.971 E.02516
G1 X98.566 Y126.785 E.01749
G1 X98.897 Y126.631 E.01718
G1 X99.241 Y126.506 E.01718
G1 X99.594 Y126.412 E.01718
G1 X99.871 Y126.363 E.01324
G1 X99.911 Y126.738 F9000
;TYPE:External perimeter
G1 F1200
G1 X100.492 Y126.69 E.02742
G1 X100.832 Y126.704 E.01599
G1 X101.164 Y126.748 E.01574
G1 X101.638 Y126.864 E.02298
G1 X101.958 Y126.98 E.01599
G1 X102.261 Y127.121 E.01574
G1 X102.679 Y127.374 E.02297
G1 X102.949 Y127.581 E.01599
G1 X103.196 Y127.807 E.01575
G1 X103.522 Y128.179 E.02323
G1 X103.714 Y128.453 E.01574
G1 X103.88 Y128.741 E.01563
G1 X104.02 Y129.042 E.01563
G1 X104.134 Y129.354 E.01563
G1 X104.22 Y129.677 E.01574
G1 X104.295 Y130.16 E.02298
G1 X104.31 Y130.5 E.01599
G1 X104.296 Y130.834 E.01575
G1 X104.221 Y131.322 E.02323
G1 X104.134 Y131.646 E.01574
G1 X104.02 Y131.958 E.01563
G1 X103.88 Y132.259 E.01563
G1 X103.712 Y132.549 E.01574
G1 X103.42 Y132.947 E.02323
G1 X103.194 Y133.194 E.01574
G1 X102.949 Y133.419 E.01563
G1 X102.684 Y133.623 E.01574
G1 X102.266 Y133.876 E.02297
G1 X101.958 Y134.02 E.01599
G1 X101.646 Y134.134 E.01564
G1 X101.323 Y134.22 E.01574
G1 X100.84 Y134.295 E.02298
G1 X100.5 Y134.31 E.01599
G1 X100.166 Y134.296 E.01575
G1 X99.678 Y134.221 E.02323
G1 X99.354 Y134.134 E.01574
G1 X99.042 Y134.02 E.01563
G1 X98.739 Y133.879 E.01574
G1 X98.321 Y133.626 E.02297
G1 X98.051 Y133.419 E.01599
G1 X97.806 Y133.194 E.01564
G1 X97.581 Y132.949 E.01563
G1 X97.379 Y132.685 E.01563
G1 X97.199 Y132.403 E.01574
G1 X96.981 Y131.96 E.02323
G1 X96.866 Y131.646 E.01574
G1 X96.78 Y131.323 E.01574
G1 X96.705 Y130.84 E.02298
G1 X96.69 Y130.5 E.01599
G1 X96.704 Y130.166 E.01574
G1 X96.778 Y129.683 E.02297
G1 X96.866 Y129.354 E.01599
G1 X96.98 Y129.042 E.01564
G1 X97.121 Y128.739 E.01574
G1 X97.374 Y128.321 E.02298
G1 X97.581 Y128.051 E.01599
G1 X97.806 Y127.806 E.01564
G1 X98.053 Y127.58 E.01574
G1 X98.451 Y127.288 E.02323
G1 X98.741 Y127.12 E.01574
G1 X99.042 Y126.98 E.01563
G1 X99.354 Y126.866 E.01563
G1 X99.823 Y126.754 E.02265
G1 X100.126 Y126.197 F9000
G1 E-3.5 F3600
;WIPE_START
G1 F7200
G1 X100.492 Y126.69 E-.31952
G1 X100.832 Y126.704 E-.16149
G1 X101.164 Y126.748 E-.159
G1 X101.638 Y126.864 E-.23206
G1 X101.958 Y126.98 E-.16147
G1 X102.261 Y127.121 E-.15901
G1 X102.679 Y127.374 E-.23203
G1 X102.68 Y127.375 E-.00041
;WIPE_END
G1 E-.075 F3600
G1 X126.844 Y102.535 F9000
G1 E5 F2400
;TYPE:Perimeter
G1 F1200
G1 X126.631 Y102.103 E.02264
G1 X126.506 Y101.759 E.01718
G1 X126.41 Y101.4 E.01748
G1 X126.329 Y100.877 E.0249
G1 X126.312 Y100.5 E.01773
G1 X126.329 Y100.129 E.0175
G1 X126.41 Y99.6 E.02516
G1 X126.506 Y99.241 E.01748
G1 X126.631 Y98.897 E.01718
G1 X126.785 Y98.566 E.01718
G1 X126.971 Y98.244 E.01748
G1 X127.288 Y97.813 E.02516
G1 X127.539 Y97.539 E.01748
G1 X127.808 Y97.292 E.01718
G1 X128.103 Y97.066 E.01748
G1 X128.556 Y96.791 E.0249
G1 X128.897 Y96.631 E.01774
G1 X129.241 Y96.506 E.0172
G1 X129.594 Y96.412 E.01718
G1 X129.96 Y96.347 E.01748
G1 X130.488 Y96.312 E.0249
G1 X130.865 Y96.328 E.01774
G1 X131.227 Y96.376 E.0172
G1 X131.59 Y96.456 E.01748
G1 X132.097 Y96.628 E.02516
G1 X132.439 Y96.788 E.01778
G1 X132.892 Y97.063 E.0249
G1 X133.192 Y97.292 E.01774
G1 X133.461 Y97.539 E.0172
G1 X133.708 Y97.808 E.01718
G1 X133.934 Y98.103 E.01749
G1 X134.212 Y98.561 E.02516
G1 X134.369 Y98.897 E.01748
G1 X134.494 Y99.241 E.01718
G1 X134.59 Y99.6 E.01748
G1 X134.671 Y100.123 E.0249
G1 X134.688 Y100.5 E.01774
G1 X134.671 Y100.871 E.01749
G1 X134.591 Y101.395 E.0249
G1 X134.494 Y101.759 E.01774
G1 X134.369 Y102.103 E.0172
G1 X134.212 Y102.439 E.01748
G1 X133.937 Y102.892 E.0249
G1 X133.708 Y103.192 E.01774
G1 X133.461 Y103.461 E.0172
G1 X133.187 Y103.712 E.01748
G1 X132.756 Y104.029 E.02516
G1 X132.434 Y104.215 E.01749
G1 X132.103 Y104.369 E.01718
G1 X131.753 Y104.496 E.01748
G1 X131.239 Y104.622 E.0249
G1 X130.865 Y104.672 E.01774
G1 X130.494 Y104.688 E.01749
G1 X129.965 Y104.654 E.0249
G1 X129.594 Y104.588 E.01774
G1 X129.241 Y104.494 E.0172
G1 X128.897 Y104.369 E.01718
G1 X128.561 Y104.212 E.01748
G1 X128.108 Y103.937 E.0249
G1 X127.808 Y103.708 E.01774
G1 X127.534 Y103.457 E.0175
G1 X127.181 Y103.055 E.02516
G1 X126.889 Y102.612 E.02493
G1 X127.478 Y102.821 F9000
;TYPE:External perimeter
G1 F1200
G1 X127.286 Y102.547 E.01574
G1 X127.12 Y102.259 E.01563
G1 X126.98 Y101.958 E.01563
G1 X126.866 Y101.646 E.01563
G1 X126.78 Y101.323 E.01574
G1 X126.705 Y100.84 E.02298
G1 X126.69 Y100.5 E.01599
G1 X126.704 Y100.166 E.01575
G1 X126.779 Y99.678 E.02323
G1 X126.866 Y99.354 E.01574
G1 X126.98 Y99.042 E.01563
G1 X127.12 Y98.741 E.01563
G1 X127.288 Y98.451 E.01574
G1 X127.58 Y98.053 E.02323
G1 X127.806 Y97.806 E.01574
G1 X128.051 Y97.581 E.01563
G1 X128.316 Y97.377 E.01574
G1 X128.734 Y97.124 E.02297
G1 X129.042 Y96.98 E.01599
G1 X129.354 Y96.866 E.01564
G1 X129.675 Y96.78 E.01563
G1 X130.005 Y96.722 E.01574
G1 X130.492 Y96.69 E.02297
G1 X130.832 Y96.704 E.01599
G1 X131.162 Y96.748 E.01564
G1 X131.488 Y96.82 E.01574
G1 X131.956 Y96.979 E.02323
G1 X132.261 Y97.121 E.01585
G1 X132.679 Y97.374 E.02297
G1 X132.949 Y97.581 E.01599
G1 X133.194 Y97.806 E.01564
G1 X133.419 Y98.051 E.01563
G1 X133.623 Y98.316 E.01574
G1 X133.879 Y98.739 E.02323
G1 X134.02 Y99.042 E.01574
G1 X134.134 Y99.354 E.01563
G1 X134.22 Y99.677 E.01574
G1 X134.295 Y100.16 E.02298
G1 X134.31 Y100.5 E.01599
G1 X134.296 Y100.834 E.01574
G1 X134.222 Y101.317 E.02297
G1 X134.134 Y101.646 E.01599
G1 X134.02 Y101.958 E.01564
G1 X133.879 Y102.261 E.01574
G1 X133.626 Y102.679 E.02298
G1 X133.419 Y102.949 E.01599
G1 X133.194 Y103.194 E.01564
G1 X132.947 Y103.42 E.01574
G1 X132.549 Y103.712 E.02323
G1 X132.259 Y103.88 E.01574
G1 X131.958 Y104.02 E.01563
G1 X131.644 Y104.135 E.01574
G1 X131.169 Y104.251 E.02298
G1 X130.832 Y104.296 E.01599
G1 X130.498 Y104.31 E.01574
G1 X130.01 Y104.279 E.02298
G1 X129.675 Y104.22 E.01599
G1 X129.354 Y104.134 E.01564
G1 X129.042 Y104.02 E.01563
G1 X128.739 Y103.879 E.01574
G1 X128.321 Y103.626 E.02297
G1 X128.051 Y103.419 E.01599
G1 X127.804 Y103.193 E.01575
G1 X127.538 Y102.889 E.01899
G1 X127.147 Y102.868 F9000
G1 E-3.5 F3600
;WIPE_START
G1 F7200
G1 X127.286 Y102.547 E-.20153
G1 X127.12 Y102.259 E-.15789
G1 X126.98 Y101.958 E-.15788
G1 X126.866 Y101.646 E-.15789
G1 X126.78 Y101.323 E-.15896
G1 X126.705 Y100.84 E-.23205
G1 X126.69 Y100.5 E-.16147
G1 X126.704 Y100.166 E-.15903
G1 X126.717 Y100.086 E-.03829
;WIPE_END
G1 E-.075 F3600
G1 X128.078 Y95.192 F9000
G1 E5 F2400
;TYPE:Perimeter
G1 F1200
G1 X131.688 Y95.192 E.16974
G1 X132.063 Y95.225 E.01772
G1 X132.433 Y95.29 E.01769
G1 X132.797 Y95.387 E.01769
G1 X133.15 Y95.516 E.01769
G1 X133.491 Y95.675 E.01769
G1 X133.817 Y95.863 E.01769
G1 X134.125 Y96.079 E.01769
G1 X134.413 Y96.321 E.01769
G1 X134.679 Y96.587 E.01769
G1 X134.921 Y96.875 E.01769
G1 X135.133 Y97.178 E.01739
G1 X135.411 Y97.683 E.02711
G1 X135.552 Y98.025 E.01742
G1 X135.665 Y98.384 E.01769
G1 X135.747 Y98.751 E.01769
G1 X135.796 Y99.124 E.01769
G1 X135.813 Y99.514 E.01834
G1 X135.808 Y131.688 E1.5132
G1 X135.775 Y132.063 E.0177
G1 X135.71 Y132.433 E.01769
G1 X135.613 Y132.797 E.01769
G1 X135.486 Y133.144 E.01737
G1 X135.231 Y133.662 E.02715
G1 X135.032 Y133.973 E.01739
G1 X134.803 Y134.272 E.01769
G1 X134.554 Y134.545 E.01739
G1 X134.125 Y134.921 E.02683
G1 X133.651 Y135.237 E.0268
G1 X133.328 Y135.405 E.01711
G1 X132.791 Y135.614 E.02713
G1 X132.44 Y135.708 E.01709
G1 X131.869 Y135.796 E.02713
G1 X131.486 Y135.813 E.01804
G1 X99.312 Y135.808 E1.5132
G1 X98.937 Y135.775 E.0177
G1 X98.567 Y135.71 E.01769
G1 X98.203 Y135.613 E.01769
G1 X97.856 Y135.486 E.01737
G1 X97.338 Y135.231 E.02715
G1 X97.027 Y135.032 E.01739
G1 X96.728 Y134.803 E.01769
G1 X96.455 Y134.554 E.01739
G1 X96.079 Y134.125 E.02683
G1 X95.763 Y133.651 E.0268
G1 X95.595 Y133.328 E.01711
G1 X95.386 Y132.791 E.02713
G1 X95.292 Y132.44 E.01709
G1 X95.204 Y131.869 E.02713
G1 X95.187 Y131.486 E.01804
G1 X95.192 Y99.312 E1.5132
G1 X95.225 Y98.937 E.0177
G1 X95.29 Y98.567 E.01769
G1 X95.387 Y98.203 E.01769
G1 X95.514 Y97.856 E.01737
G1 X95.769 Y97.338 E.02715
G1 X95.968 Y97.027 E.01739
G1 X96.197 Y96.728 E.01769
G1 X96.446 Y96.455 E.01739
G1 X96.88 Y96.075 E.02713
G1 X97.178 Y95.867 E.01709
G1 X97.683 Y95.589 E.02711
G1 X98.025 Y95.448 E.01742
G1 X98.384 Y95.335 E.01769
G1 X98.745 Y95.255 E.01739
G1 X99.318 Y95.192 E.02713
G1 X127.988 Y95.192 E1.3484
G1 X127.478 Y94.815 F9000
;TYPE:External perimeter
G1 F1200
G1 X131.704 Y94.815 E.19873
G1 X132.112 Y94.85 E.01927
G1 X132.515 Y94.921 E.01924
G1 X132.91 Y95.027 E.01924
G1 X133.295 Y95.167 E.01924
G1 X133.665 Y95.34 E.01924
G1 X134.02 Y95.545 E.01924
G1 X134.355 Y95.779 E.01924
G1 X134.668 Y96.042 E.01924
G1 X134.958 Y96.332 E.01924
G1 X135.221 Y96.645 E.01924
G1 X135.454 Y96.978 E.01913
G1 X135.751 Y97.52 E.02904
G1 X135.907 Y97.896 E.01916
G1 X136.03 Y98.286 E.01924
G1 X136.119 Y98.686 E.01924
G1 X136.172 Y99.091 E.01924
G1 X136.19 Y99.506 E.01951
G1 X136.185 Y131.705 E1.51436
G1 X136.15 Y132.112 E.01924
G1 X136.079 Y132.515 E.01924
G1 X135.973 Y132.91 E.01924
G1 X135.834 Y133.292 E.01911
G1 X135.56 Y133.847 E.02909
G1 X135.342 Y134.19 E.01914
G1 X135.093 Y134.515 E.01924
G1 X134.818 Y134.814 E.01913
G1 X134.355 Y135.22 E.02896
G1 X133.843 Y135.562 E.02893
G1 X133.484 Y135.749 E.01905
G1 X132.908 Y135.973 E.02907
G1 X132.517 Y136.078 E.01903
G1 X131.906 Y136.172 E.02907
G1 X131.494 Y136.19 E.0194
G1 X99.295 Y136.185 E1.51436
G1 X98.888 Y136.15 E.01924
G1 X98.485 Y136.079 E.01924
G1 X98.09 Y135.973 E.01924
G1 X97.708 Y135.834 E.01911
G1 X97.153 Y135.56 E.02909
G1 X96.81 Y135.342 E.01914
G1 X96.485 Y135.093 E.01924
G1 X96.186 Y134.818 E.01913
G1 X95.78 Y134.355 E.02896
G1 X95.438 Y133.843 E.02893
G1 X95.251 Y133.484 E.01905
G1 X95.027 Y132.908 E.02907
G1 X94.922 Y132.517 E.01902
G1 X94.828 Y131.906 E.02907
G1 X94.81 Y131.494 E.0194
G1 X94.815 Y99.295 E1.51436
G1 X94.85 Y98.888 E.01924
G1 X94.921 Y98.485 E.01924
G1 X95.027 Y98.09 E.01924
G1 X95.166 Y97.708 E.01911
G1 X95.44 Y97.153 E.02909
G1 X95.658 Y96.81 E.01914
G1 X95.907 Y96.485 E.01924
G1 X96.182 Y96.186 E.01913
G1 X96.647 Y95.778 E.02907
G1 X96.978 Y95.546 E.01903
G1 X97.52 Y95.249 E.02904
G1 X97.896 Y95.093 E.01916
G1 X98.286 Y94.97 E.01924
G1 X98.683 Y94.882 E.01913
G1 X99.298 Y94.815 E.02907
G1 X127.388 Y94.815 E1.32115
G1 X127.779 Y95.334 F9000
G1 E-3.5 F3600
;WIPE_START
G1 F7200
G1 X130.388 Y94.815 E-1.425
;WIPE_END
G1 E-.075 F3600
G1 X133.506 Y95.814 F9000
G1 E5 F2400
;TYPE:Solid infill
;WIDTH:0.420993
G1 F1200
G1 X134.475 Y96.783 E.06458
G1 X134.697 Y97.047 E.01628
G1 X134.893 Y97.327 E.01613
G1 X135.155 Y97.805 E.02572
G1 X135.289 Y98.132 E.01665
G1 X132.874 Y95.716 E.16112
G1 X132.372 Y95.566 E.02468
G1 X132.15 Y95.527 E.01065
G1 X135.475 Y98.852 E.22175
G1 X135.514 Y99.149 E.01411
G1 X135.527 Y99.439 E.01368
G1 X131.563 Y95.475 E.26435
G1 X131.028 Y95.475 E.02521
G1 X131.773 Y96.22 E.04971
G1 X131.276 Y96.097 E.02414
G1 X131.092 Y96.073 E.00879
G1 X130.493 Y95.475 E.0399
G1 X129.959 Y95.475 E.02521
G1 X130.514 Y96.03 E.03706
G1 X130.01 Y96.06 E.02384
G1 X129.424 Y95.475 E.03907
G1 X128.889 Y95.475 E.02521
G1 X129.547 Y96.133 E.04388
G1 X129.127 Y96.247 E.02055
G1 X128.355 Y95.475 E.05149
G1 X127.82 Y95.475 E.02521
G1 X128.739 Y96.393 E.06126
G1 X128.378 Y96.568 E.01887
G1 X127.285 Y95.475 E.0729
G1 X126.75 Y95.475 E.02521
G1 X128.046 Y96.77 E.08638
G1 X127.734 Y96.993 E.01807
G1 X126.216 Y95.475 E.10124
G1 X125.681 Y95.475 E.02521
G1 X127.447 Y97.24 E.11773
G1 X127.182 Y97.51 E.01783
G1 X125.146 Y95.475 E.13573
G1 X124.612 Y95.475 E.02521
G1 X126.943 Y97.805 E.15544
G1 X126.719 Y98.116 E.01806
G1 X124.077 Y95.475 E.17617
